;FLAVOR:Marlin
;TIME:2467
;Filament used: 2.85281m
;Layer height: 0.2
;MINX:100.859
;MINY:95.975
;MINZ:0.2
;MAXX:133.86
;MAXY:137.82
;MAXZ:40
;TARGET_MACHINE.NAME:ELEGOO NEPTUNE 3 Pro
;Generated with Cura_SteamEngine 5.10.2
M140 S70
M105
M190 S70
M104 S210
M105
M109 S210
;ELEGOO NEPTUNE 3 Pro
M220 S100 ;Set the feed speed to 100%
M221 S100 ;Set the flow rate to 100%
G90
G28 ;home
;M420 S1 Z10;Uncomment to enable progressive compensation height of 10mm
G92 E0 ;Reset Extruder
G1 Z0.45 F300
G1 X1.5 Y20 F5000.0 ;Move to start position
G1 Y120.0 F600.0 E15 ;Draw the first line
G1 X0.5 F1000.0 ;Move to side a little
G1 Y20 F600 E30 ;Draw the second line
G92 E0 ;Reset Extruder
M82 ;absolute extrusion mode
G92 E0
G92 E0
G1 F1500 E-1
;LAYER_COUNT:200
;LAYER:0
M107
M204 S500
G0 F6000 X104.188 Y101.06 Z0.2
;TYPE:SKIRT
G1 F1500 E0
G1 F1800 X104.958 Y100.266 E0.05021
G1 X105.175 Y100.082 E0.06313
G1 X105.664 Y99.571 E0.09524
G1 X106.161 Y99.229 E0.12263
G1 X106.589 Y98.848 E0.14865
G1 X107.136 Y98.503 E0.17801
G1 X107.599 Y98.146 E0.20455
G1 X108.075 Y97.859 E0.22979
G1 X108.904 Y97.419 E0.27239
G1 X110.132 Y96.866 E0.33354
G1 X110.721 Y96.665 E0.36179
G1 X111.254 Y96.439 E0.38808
G1 X112.659 Y96.034 E0.45446
G1 X114.365 Y95.975 E0.53196
G1 X116.285 Y96.514 E0.6225
G1 X117.421 Y97.148 E0.68156
G1 X118.202 Y96.636 E0.72396
G1 X120.116 Y96.097 E0.81423
G1 X121.818 Y96.038 E0.89155
G1 X123.564 Y96.527 E0.97387
G1 X124.115 Y96.79 E1.00159
G1 X124.652 Y96.988 E1.02757
G1 X125.138 Y97.247 E1.05258
G1 X125.707 Y97.463 E1.08021
G1 X126.348 Y97.866 E1.11458
G1 X127.003 Y98.201 E1.14798
G1 X127.524 Y98.615 E1.17819
G1 X128.203 Y99.042 E1.21461
G1 X128.68 Y99.511 E1.24498
G1 X129.262 Y99.991 E1.27923
G1 X129.641 Y100.391 E1.30425
G1 X129.846 Y100.586 E1.31709
G1 X130.598 Y101.4 E1.3674
G1 X130.899 Y101.812 E1.39057
G1 X131.456 Y102.456 E1.42923
G1 X131.771 Y103.075 E1.46076
G1 X132.185 Y103.681 E1.49408
G1 X132.491 Y104.276 E1.52445
G1 X132.929 Y105.311 E1.57548
G1 X133.125 Y105.961 E1.6063
G1 X133.21 Y106.192 E1.61747
G1 X133.496 Y107.182 E1.66426
G1 X133.591 Y107.811 E1.69314
G1 X133.718 Y108.343 E1.71797
G1 X133.8 Y109.066 E1.75101
G1 X133.795 Y109.557 E1.7733
G1 X133.86 Y110.396 E1.8115
G1 X133.771 Y111.027 E1.84043
G1 X133.762 Y111.461 E1.86014
G1 X133.666 Y112.242 E1.89587
G1 X133.343 Y113.321 E1.947
G1 X132.72 Y114.476 E2.00658
G1 X131.895 Y115.356 E2.06134
G1 X131.403 Y115.713 E2.08894
G1 X131.819 Y116.579 E2.13256
G1 X132.523 Y118.653 E2.23199
G1 X132.89 Y120.511 E2.31798
G1 X133.021 Y122.95 E2.42887
G1 X132.867 Y124.767 E2.51166
G1 X132.501 Y126.518 E2.59287
G1 X131.736 Y128.696 E2.69767
G1 X131.008 Y130.14 E2.77109
G1 X129.874 Y131.841 E2.8639
G1 X128.496 Y133.401 E2.9584
G1 X126.972 Y134.722 E3.04997
G1 X125.146 Y135.908 E3.14882
G1 X123.239 Y136.804 E3.24448
G1 X121.817 Y137.273 E3.31246
G1 X119.722 Y137.692 E3.40945
G1 X117.752 Y137.82 E3.49908
G1 X115.901 Y137.708 E3.58327
G1 X113.464 Y137.205 E3.69624
G1 X111.597 Y136.529 E3.78639
G1 X110.153 Y135.801 E3.85981
G1 X108.395 Y134.623 E3.95588
G1 X106.994 Y133.391 E4.04058
G1 X105.481 Y131.647 E4.1454
G1 X104.435 Y130.038 E4.23253
G1 X103.616 Y128.344 E4.31796
G1 X102.894 Y126.119 E4.42416
G1 X102.613 Y124.629 E4.493
G1 X102.473 Y122.245 E4.60142
G1 X102.596 Y120.612 E4.67576
G1 X103.064 Y118.338 E4.78117
G1 X103.737 Y116.454 E4.87199
G1 X104.561 Y114.828 E4.95475
G1 X104.051 Y114.522 E4.98176
G1 X102.777 Y113.205 E5.06494
G1 X102.335 Y112.608 E5.09867
G1 X102.055 Y112.028 E5.12791
G1 X101.719 Y111.528 E5.15526
G1 X101.316 Y110.577 E5.20215
G1 X100.998 Y109.498 E5.25322
G1 X100.859 Y108.243 E5.31055
G1 X100.992 Y107.178 E5.35927
G1 X101.402 Y105.824 E5.4235
G1 X101.56 Y105.448 E5.44202
G1 X101.81 Y104.681 E5.47864
G1 X102.152 Y104.125 E5.50828
G1 X102.424 Y103.51 E5.53881
G1 X102.699 Y103.053 E5.56302
G1 X102.951 Y102.721 E5.58194
G1 X103.288 Y102.086 E5.61458
G1 X103.848 Y101.493 E5.65161
G1 X104.188 Y101.06 E5.67661
G0 F6000 X104.581 Y101.439
G1 F1800 X105.311 Y100.683 E5.72432
G1 X105.547 Y100.483 E5.73836
G1 X106.018 Y99.991 E5.76928
G1 X106.497 Y99.661 E5.79569
G1 X106.919 Y99.285 E5.82135
G1 X107.453 Y98.949 E5.85
G1 X107.881 Y98.614 E5.87467
G1 X108.357 Y98.327 E5.89991
G1 X108.747 Y98.15 E5.91935
G1 X109.128 Y97.917 E5.93963
G1 X110.356 Y97.364 E6.00077
G1 X110.929 Y97.171 E6.02822
G1 X111.468 Y96.942 E6.05481
G1 X112.744 Y96.578 E6.11505
G1 X114.3 Y96.524 E6.18573
G1 X116.075 Y97.022 E6.26943
G1 X117.271 Y97.69 E6.33163
G1 X117.416 Y97.805 E6.34003
G1 X118.429 Y97.14 E6.39504
G1 X120.201 Y96.641 E6.47862
G1 X121.753 Y96.587 E6.54912
G1 X123.371 Y97.04 E6.62541
G1 X123.899 Y97.292 E6.65197
G1 X124.463 Y97.5 E6.67926
G1 X124.911 Y97.744 E6.70242
G1 X125.463 Y97.954 E6.72923
G1 X126.084 Y98.344 E6.76252
G1 X126.707 Y98.663 E6.7943
G1 X127.209 Y99.062 E6.82341
G1 X127.863 Y99.473 E6.85848
G1 X128.315 Y99.918 E6.88728
G1 X128.865 Y100.366 E6.91948
G1 X129.254 Y100.777 E6.94518
G1 X129.47 Y100.982 E6.9587
G1 X130.157 Y101.723 E7.00457
G1 X130.466 Y102.145 E7.02832
G1 X130.999 Y102.762 E7.06533
G1 X131.301 Y103.356 E7.09559
G1 X131.699 Y103.931 E7.12733
G1 X132.005 Y104.526 E7.15771
G1 X132.406 Y105.469 E7.20423
G1 X132.607 Y106.134 E7.23577
G1 X132.697 Y106.38 E7.24767
G1 X132.956 Y107.264 E7.28949
G1 X133.054 Y107.912 E7.31924
G1 X133.176 Y108.408 E7.34243
G1 X133.254 Y109.061 E7.37229
G1 X133.249 Y109.571 E7.39544
G1 X133.311 Y110.375 E7.43205
G1 X133.225 Y110.982 E7.45988
G1 X133.22 Y111.394 E7.47859
G1 X133.129 Y112.132 E7.51235
G1 X132.837 Y113.109 E7.55864
G1 X132.273 Y114.155 E7.6126
G1 X131.533 Y114.944 E7.66171
G1 X130.917 Y115.391 E7.69626
G1 X130.696 Y115.506 E7.70757
G1 X131.302 Y116.756 E7.77064
G1 X131.987 Y118.759 E7.86675
G1 X132.354 Y120.617 E7.95273
G1 X132.477 Y122.904 E8.05671
G1 X132.323 Y124.721 E8.1395
G1 X131.985 Y126.338 E8.2145
G1 X131.248 Y128.45 E8.31605
G1 X130.52 Y129.894 E8.38947
G1 X129.42 Y131.537 E8.47924
G1 X128.138 Y132.988 E8.56714
G1 X126.614 Y134.309 E8.6587
G1 X124.85 Y135.449 E8.75406
G1 X123.068 Y136.285 E8.84342
G1 X121.646 Y136.754 E8.9114
G1 X119.687 Y137.147 E9.00211
G1 X117.717 Y137.275 E9.09174
G1 X116.01 Y137.173 E9.16937
G1 X113.649 Y136.691 E9.27878
G1 X111.843 Y136.041 E9.36592
G1 X110.399 Y135.313 E9.43933
G1 X108.756 Y134.213 E9.5291
G1 X107.355 Y132.981 E9.6138
G1 X105.938 Y131.348 E9.71196
G1 X104.927 Y129.8 E9.7959
G1 X104.108 Y128.106 E9.88132
G1 X103.431 Y126.018 E9.98098
G1 X103.15 Y124.528 E10.04982
G1 X103.018 Y122.214 E10.15504
G1 X103.131 Y120.721 E10.22302
G1 X103.579 Y118.521 E10.32495
G1 X104.225 Y116.7 E10.41267
G1 X105.014 Y115.134 E10.49228
G1 X105.344 Y114.634 E10.51948
G1 X104.442 Y114.141 E10.56615
G1 X103.216 Y112.88 E10.646
G1 X102.804 Y112.324 E10.67741
G1 X102.53 Y111.756 E10.70604
G1 X102.201 Y111.267 E10.7328
G1 X101.84 Y110.423 E10.77448
G1 X101.536 Y109.391 E10.82332
G1 X101.409 Y108.247 E10.87558
G1 X101.528 Y107.292 E10.91927
G1 X101.925 Y105.982 E10.98142
G1 X102.07 Y105.644 E10.99811
G1 X102.309 Y104.912 E11.03307
G1 X102.638 Y104.378 E11.06155
G1 X102.892 Y103.792 E11.09054
G1 X103.167 Y103.335 E11.11476
G1 X103.411 Y103.019 E11.13288
G1 X103.735 Y102.408 E11.16428
G1 X104.262 Y101.85 E11.19913
G1 X104.581 Y101.439 E11.22275
G0 F6000 X104.975 Y101.817
G1 F1800 X105.664 Y101.1 E11.26789
G1 X105.92 Y100.883 E11.28313
G1 X106.374 Y100.408 E11.31296
G1 X106.836 Y100.091 E11.3384
G1 X107.248 Y99.723 E11.36348
G1 X107.768 Y99.396 E11.39137
G1 X108.163 Y99.082 E11.41428
G1 X108.639 Y98.795 E11.43951
G1 X109.007 Y98.632 E11.45778
G1 X109.355 Y98.414 E11.47643
G1 X109.896 Y98.167 E11.50343
G1 X110.147 Y98.085 E11.51541
G1 X110.605 Y97.85 E11.53879
G1 X111.125 Y97.681 E11.56361
G1 X111.681 Y97.445 E11.59103
G1 X112.826 Y97.122 E11.64504
G1 X114.234 Y97.073 E11.709
G1 X115.866 Y97.531 E11.78596
G1 X117.005 Y98.167 E11.84519
G1 X117.379 Y98.527 E11.86875
G1 X117.544 Y98.374 E11.87897
G1 X118.656 Y97.644 E11.93936
G1 X120.286 Y97.185 E12.01624
G1 X121.688 Y97.136 E12.07993
G1 X123.224 Y97.566 E12.15235
G1 X123.684 Y97.795 E12.17568
G1 X124.202 Y97.98 E12.20065
G1 X124.678 Y98.239 E12.22525
G1 X125.217 Y98.444 E12.25143
G1 X125.81 Y98.817 E12.28324
G1 X126.409 Y99.123 E12.31377
G1 X126.896 Y99.511 E12.34204
G1 X127.524 Y99.905 E12.3757
G1 X127.95 Y100.325 E12.40286
G1 X128.469 Y100.741 E12.43306
G1 X128.879 Y101.174 E12.46013
G1 X129.071 Y101.355 E12.47211
G1 X129.716 Y102.045 E12.51499
G1 X130.037 Y102.484 E12.53968
G1 X130.541 Y103.067 E12.57467
G1 X130.831 Y103.637 E12.6037
G1 X131.213 Y104.181 E12.63388
G1 X131.519 Y104.776 E12.66426
G1 X131.883 Y105.627 E12.70628
G1 X132.086 Y106.298 E12.73811
G1 X132.173 Y106.534 E12.74953
G1 X132.432 Y107.418 E12.79135
G1 X132.518 Y108.016 E12.81878
G1 X132.634 Y108.477 E12.84036
G1 X132.708 Y109.056 E12.86686
G1 X132.703 Y109.585 E12.89088
G1 X132.762 Y110.354 E12.92589
G1 X132.679 Y110.939 E12.95272
G1 X132.678 Y111.328 E12.97038
G1 X132.593 Y112.021 E13.00208
G1 X132.331 Y112.897 E13.04359
G1 X131.826 Y113.834 E13.09191
G1 X131.171 Y114.532 E13.13537
G1 X130.596 Y114.949 E13.16762
G1 X129.913 Y115.274 E13.20196
G1 X130.179 Y115.693 E13.22449
G1 X130.785 Y116.933 E13.28715
G1 X131.47 Y118.936 E13.38325
G1 X131.818 Y120.721 E13.46582
G1 X131.933 Y122.858 E13.56298
G1 X131.779 Y124.675 E13.64577
G1 X131.469 Y126.159 E13.71459
G1 X130.76 Y128.204 E13.81286
G1 X130.032 Y129.648 E13.88628
G1 X129.01 Y131.176 E13.96974
G1 X127.78 Y132.575 E14.05431
G1 X126.256 Y133.896 E14.14587
G1 X124.617 Y134.955 E14.23446
G1 X122.897 Y135.766 E14.3208
G1 X121.475 Y136.235 E14.38878
G1 X119.581 Y136.611 E14.47644
G1 X117.683 Y136.73 E14.56278
G1 X116.118 Y136.638 E14.63396
G1 X113.833 Y136.177 E14.73978
G1 X112.089 Y135.553 E14.82388
G1 X110.645 Y134.825 E14.8973
G1 X109.117 Y133.803 E14.98075
G1 X107.716 Y132.571 E15.06545
G1 X106.351 Y130.991 E15.16025
G1 X105.419 Y129.562 E15.2377
G1 X104.6 Y127.868 E15.32313
G1 X103.968 Y125.917 E15.41624
G1 X103.687 Y124.427 E15.48507
G1 X103.563 Y122.253 E15.58393
G1 X103.666 Y120.83 E15.64871
G1 X104.114 Y118.63 E15.75064
G1 X104.713 Y116.946 E15.83178
G1 X105.502 Y115.38 E15.91139
G1 X106.16 Y114.395 E15.96517
G1 X105.861 Y114.294 E15.9795
G1 X104.776 Y113.701 E16.03564
G1 X103.655 Y112.555 E16.10842
G1 X103.275 Y112.042 E16.1374
G1 X103.008 Y111.49 E16.16524
G1 X102.684 Y111.007 E16.19165
G1 X102.364 Y110.269 E16.22817
G1 X102.074 Y109.284 E16.27478
G1 X101.959 Y108.25 E16.32202
G1 X102.064 Y107.407 E16.36058
G1 X102.448 Y106.14 E16.42069
G1 X102.581 Y105.839 E16.43563
G1 X102.808 Y105.143 E16.46887
G1 X103.126 Y104.627 E16.49638
G1 X103.36 Y104.074 E16.52365
G1 X103.635 Y103.617 E16.54786
G1 X103.869 Y103.32 E16.56503
G1 X104.182 Y102.73 E16.59535
G1 X104.675 Y102.208 E16.62795
G1 X104.975 Y101.817 E16.65032
G0 F6000 X105.369 Y102.195
G1 F1800 X106.058 Y101.478 E16.69547
G1 X106.293 Y101.283 E16.70933
G1 X106.73 Y100.826 E16.73804
G1 X107.18 Y100.517 E16.76282
G1 X107.539 Y100.185 E16.78502
G1 X108.086 Y99.841 E16.81436
G1 X108.445 Y99.55 E16.83534
G1 X108.921 Y99.263 E16.86057
G1 X109.261 Y99.117 E16.87737
G1 X109.585 Y98.909 E16.89485
G1 X110.065 Y98.686 E16.91888
G1 X110.359 Y98.59 E16.93292
G1 X110.854 Y98.336 E16.95818
G1 X111.318 Y98.192 E16.98024
G1 X111.829 Y97.971 E17.00551
G1 X112.911 Y97.666 E17.05655
G1 X114.168 Y97.622 E17.11365
G1 X115.657 Y98.04 E17.18387
G1 X116.739 Y98.644 E17.24012
G1 X117.38 Y99.321 E17.28245
G1 X117.844 Y98.83 E17.31312
G1 X118.883 Y98.148 E17.36955
G1 X120.371 Y97.729 E17.43973
G1 X121.623 Y97.685 E17.49661
G1 X123.025 Y98.077 E17.5627
G1 X123.466 Y98.297 E17.58507
G1 X123.941 Y98.46 E17.60787
G1 X124.445 Y98.734 E17.63392
G1 X124.971 Y98.934 E17.65946
G1 X125.54 Y99.292 E17.68998
G1 X126.113 Y99.585 E17.7192
G1 X126.578 Y99.955 E17.74618
G1 X127.182 Y100.334 E17.77855
G1 X127.59 Y100.737 E17.80459
G1 X128.073 Y101.117 E17.83249
G1 X128.495 Y101.562 E17.86033
G1 X128.672 Y101.728 E17.87135
G1 X129.317 Y102.418 E17.91423
G1 X129.606 Y102.821 E17.93675
G1 X130.084 Y103.373 E17.9699
G1 X130.363 Y103.922 E17.99786
G1 X130.727 Y104.431 E18.02627
G1 X131.033 Y105.026 E18.05664
G1 X131.36 Y105.785 E18.09416
G1 X131.567 Y106.47 E18.12665
G1 X131.649 Y106.688 E18.13723
G1 X131.908 Y107.572 E18.17905
G1 X131.981 Y108.119 E18.2041
G1 X132.092 Y108.546 E18.22413
G1 X132.166 Y109.125 E18.25063
G1 X132.157 Y109.595 E18.27197
G1 X132.213 Y110.333 E18.30557
G1 X132.133 Y110.901 E18.33162
G1 X132.136 Y111.262 E18.34801
G1 X132.057 Y111.908 E18.37755
G1 X131.824 Y112.686 E18.41442
G1 X131.379 Y113.513 E18.45706
G1 X130.807 Y114.122 E18.49499
G1 X130.318 Y114.476 E18.5224
G1 X129.812 Y114.717 E18.54784
G1 X129.029 Y114.909 E18.58445
G1 X129.688 Y115.933 E18.63973
G1 X130.294 Y117.173 E18.70239
G1 X130.934 Y119.04 E18.79199
G1 X131.282 Y120.825 E18.87456
G1 X131.389 Y122.813 E18.96495
G1 X131.244 Y124.565 E19.04476
G1 X130.953 Y125.981 E19.11039
G1 X130.272 Y127.958 E19.20532
G1 X129.544 Y129.402 E19.27874
G1 X128.6 Y130.815 E19.35589
G1 X127.37 Y132.214 E19.44046
G1 X125.959 Y133.438 E19.52526
G1 X124.383 Y134.462 E19.61059
G1 X122.726 Y135.247 E19.69383
G1 X121.304 Y135.716 E19.76181
G1 X119.547 Y136.066 E19.84315
G1 X117.649 Y136.185 E19.92949
G1 X116.151 Y136.093 E19.99762
G1 X114.016 Y135.663 E20.0965
G1 X112.335 Y135.065 E20.1775
G1 X110.891 Y134.337 E20.25092
G1 X109.478 Y133.393 E20.32807
G1 X108.077 Y132.161 E20.41277
G1 X106.765 Y130.635 E20.50414
G1 X105.911 Y129.324 E20.57517
G1 X105.092 Y127.63 E20.66059
G1 X104.505 Y125.816 E20.74715
G1 X104.224 Y124.326 E20.81599
G1 X104.108 Y122.29 E20.90858
G1 X104.201 Y120.938 E20.9701
G1 X104.629 Y118.812 E21.06856
G1 X105.201 Y117.192 E21.14656
G1 X105.99 Y115.626 E21.22617
G1 X106.904 Y114.267 E21.30052
G1 X107.057 Y114.088 E21.31122
G1 X106.123 Y113.815 E21.35539
G1 X105.109 Y113.261 E21.40785
G1 X104.094 Y112.23 E21.47354
G1 X103.743 Y111.756 E21.50031
G1 X103.48 Y111.213 E21.5277
G1 X103.165 Y110.743 E21.55339
G1 X102.888 Y110.115 E21.58455
G1 X102.612 Y109.177 E21.62894
G1 X102.509 Y108.253 E21.67115
G1 X102.6 Y107.522 E21.7046
G1 X102.971 Y106.298 E21.76266
G1 X103.09 Y106.039 E21.7756
G1 X103.307 Y105.374 E21.80736
G1 X103.615 Y104.874 E21.83402
G1 X103.828 Y104.356 E21.85945
G1 X104.103 Y103.899 E21.88367
G1 X104.326 Y103.624 E21.89974
G1 X104.629 Y103.052 E21.92913
G1 X105.093 Y102.56 E21.95983
G1 X105.369 Y102.195 E21.98061
G0 F6000 X105.764 Y102.572
G1 F1800 X106.407 Y101.898 E22.0229
G1 X106.666 Y101.683 E22.03818
G1 X107.084 Y101.246 E22.06563
G1 X107.521 Y100.945 E22.08972
G1 X107.876 Y100.617 E22.11167
G1 X108.411 Y100.281 E22.14035
G1 X108.727 Y100.018 E22.15901
G1 X109.203 Y99.731 E22.18425
G1 X109.519 Y99.602 E22.19974
G1 X109.815 Y99.404 E22.21591
G1 X110.295 Y99.181 E22.23994
G1 X110.569 Y99.096 E22.25297
G1 X111.06 Y98.844 E22.27802
G1 X111.51 Y98.705 E22.2994
G1 X111.977 Y98.497 E22.32261
G1 X112.996 Y98.21 E22.37068
G1 X114.103 Y98.171 E22.42097
G1 X115.447 Y98.548 E22.48434
G1 X116.402 Y99.081 E22.53399
G1 X117.381 Y100.115 E22.59864
G1 X118.198 Y99.251 E22.65262
G1 X119.11 Y98.652 E22.70216
G1 X120.456 Y98.273 E22.76565
G1 X121.558 Y98.234 E22.81571
G1 X122.826 Y98.589 E22.87549
G1 X123.257 Y98.804 E22.89736
G1 X123.68 Y98.94 E22.91753
G1 X124.212 Y99.229 E22.94501
G1 X124.725 Y99.424 E22.96993
G1 X125.27 Y99.767 E22.99917
G1 X125.817 Y100.047 E23.02706
G1 X126.26 Y100.399 E23.05275
G1 X126.84 Y100.763 E23.08384
G1 X127.227 Y101.146 E23.10856
G1 X127.677 Y101.493 E23.13436
G1 X128.113 Y101.952 E23.1631
G1 X128.273 Y102.101 E23.17303
G1 X128.918 Y102.791 E23.21591
G1 X129.176 Y103.159 E23.23631
