;FLAVOR:Marlin
;TIME:22843
;Filament used: 43.8758m
;Layer height: 0.2
;MINX:76.71
;MINY:12.213
;MINZ:0.2
;MAXX:163.728
;MAXY:222.787
;MAXZ:16.8
;TARGET_MACHINE.NAME:ELEGOO NEPTUNE 3 Pro
;Generated with Cura_SteamEngine 5.10.2
M140 S70
M105
M190 S70
M104 S210
M105
M109 S210
;ELEGOO NEPTUNE 3 Pro
M220 S100 ;Set the feed speed to 100%
M221 S100 ;Set the flow rate to 100%
G90
G28 ;home
;M420 S1 Z10;Uncomment to enable progressive compensation height of 10mm
G92 E0 ;Reset Extruder
G1 Z0.45 F300
G1 X1.5 Y20 F5000.0 ;Move to start position
G1 Y120.0 F600.0 E15 ;Draw the first line
G1 X0.5 F1000.0 ;Move to side a little
G1 Y20 F600 E30 ;Draw the second line
G92 E0 ;Reset Extruder
M82 ;absolute extrusion mode
G92 E0
G92 E0
G1 F1500 E-1
;LAYER_COUNT:84
;LAYER:0
M107
M204 S500
G0 F6000 X81.37 Y16.173 Z0.2
;TYPE:SKIRT
G1 F1500 E0
G1 F1800 X81.809 Y15.083 E0.05335
G1 X82.351 Y14.248 E0.09854
G1 X83.123 Y13.43 E0.14961
G1 X84.239 Y12.741 E0.20915
G1 X84.803 Y12.498 E0.23703
G1 X86.074 Y12.213 E0.29617
G1 X158.718 Y12.229 E3.59421
G1 X159.745 Y12.361 E3.64122
G1 X160.866 Y12.812 E3.69608
G1 X161.693 Y13.349 E3.74085
G1 X162.511 Y14.121 E3.79191
G1 X163.2 Y15.237 E3.85146
G1 X163.443 Y15.801 E3.87934
G1 X163.728 Y17.072 E3.93848
G1 X163.702 Y217.864 E13.05445
G1 X163.573 Y218.826 E13.09852
G1 X163.116 Y219.931 E13.1528
G1 X162.71 Y220.616 E13.18895
G1 X161.912 Y221.476 E13.24222
G1 X161.112 Y222.067 E13.28737
G1 X160.515 Y222.364 E13.31765
G1 X159.074 Y222.787 E13.38583
G1 X86.134 Y222.762 E16.69731
G1 X85.175 Y222.632 E16.74125
G1 X84.085 Y222.193 E16.7946
G1 X83.25 Y221.651 E16.83979
G1 X82.432 Y220.879 E16.89086
G1 X81.743 Y219.763 E16.9504
G1 X81.5 Y219.199 E16.97828
G1 X81.215 Y217.928 E17.03742
G1 X81.24 Y17.132 E26.15357
G1 X81.37 Y16.173 E26.19751
G0 F6000 X81.902 Y16.312
G1 F1800 X82.295 Y15.337 E26.24524
G1 X82.781 Y14.588 E26.28577
G1 X83.472 Y13.856 E26.33147
G1 X84.455 Y13.243 E26.38407
G1 X84.973 Y13.02 E26.40967
G1 X86.136 Y12.759 E26.46379
G1 X158.649 Y12.771 E29.75588
G1 X159.609 Y12.894 E29.79982
G1 X160.612 Y13.298 E29.84891
G1 X161.353 Y13.779 E29.88902
G1 X162.085 Y14.47 E29.93472
G1 X162.698 Y15.453 E29.98732
G1 X162.921 Y15.971 E30.01292
G1 X163.182 Y17.134 E30.06704
G1 X163.161 Y217.792 E39.17693
G1 X163.042 Y218.681 E39.21765
G1 X162.646 Y219.652 E39.26525
G1 X162.267 Y220.291 E39.29898
G1 X161.547 Y221.067 E39.34704
G1 X160.828 Y221.598 E39.38762
G1 X160.316 Y221.853 E39.41359
G1 X158.995 Y222.241 E39.4761
G1 X86.207 Y222.221 E42.78068
G1 X85.314 Y222.1 E42.82159
G1 X84.339 Y221.707 E42.86932
G1 X83.59 Y221.221 E42.90985
G1 X82.858 Y220.53 E42.95556
G1 X82.245 Y219.547 E43.00815
G1 X82.022 Y219.029 E43.03375
G1 X81.761 Y217.866 E43.08787
G1 X81.781 Y17.205 E52.19789
G1 X81.902 Y16.312 E52.23881
G0 F6000 X82.434 Y16.455
G1 F1800 X82.783 Y15.587 E52.28128
G1 X83.211 Y14.928 E52.31696
G1 X83.822 Y14.281 E52.35736
G1 X84.744 Y13.706 E52.40669
G1 X85.139 Y13.542 E52.42611
G1 X86.197 Y13.305 E52.47533
G1 X158.579 Y13.313 E55.76148
G1 X159.474 Y13.428 E55.80245
G1 X160.358 Y13.784 E55.84571
G1 X161.013 Y14.209 E55.88116
G1 X161.66 Y14.82 E55.92156
G1 X162.235 Y15.742 E55.97089
G1 X162.399 Y16.137 E55.99031
G1 X162.636 Y17.195 E56.03953
G1 X162.62 Y217.719 E65.14334
G1 X162.51 Y218.538 E65.18086
G1 X162.14 Y219.446 E65.22537
G1 X161.826 Y219.964 E65.25287
G1 X161.182 Y220.658 E65.29586
G1 X160.504 Y221.159 E65.33413
G1 X160.162 Y221.329 E65.35147
G1 X158.916 Y221.695 E65.41043
G1 X86.281 Y221.68 E68.70806
G1 X85.457 Y221.568 E68.74582
G1 X84.589 Y221.219 E68.78829
G1 X83.93 Y220.791 E68.82396
G1 X83.283 Y220.18 E68.86437
G1 X82.708 Y219.258 E68.9137
G1 X82.544 Y218.863 E68.93312
G1 X82.307 Y217.805 E68.98234
G1 X82.322 Y17.279 E78.08624
G1 X82.434 Y16.455 E78.12399
G0 F6000 X82.966 Y16.598
G1 F1800 X83.272 Y15.837 E78.16123
G1 X83.641 Y15.268 E78.19202
G1 X84.171 Y14.707 E78.22706
G1 X84.967 Y14.205 E78.26978
G1 X85.258 Y14.075 E78.28425
G1 X86.258 Y13.851 E78.33078
G1 X158.51 Y13.855 E81.61102
G1 X159.338 Y13.961 E81.64892
G1 X160.104 Y14.27 E81.68642
G1 X160.673 Y14.639 E81.71721
G1 X161.234 Y15.169 E81.75225
G1 X161.736 Y15.965 E81.79497
G1 X161.866 Y16.256 E81.80944
G1 X162.09 Y17.256 E81.85597
G1 X162.079 Y217.646 E90.95369
G1 X161.978 Y218.395 E90.988
G1 X161.634 Y219.24 E91.02942
G1 X161.388 Y219.634 E91.05051
G1 X160.819 Y220.247 E91.08848
G1 X160.179 Y220.72 E91.12461
G1 X160.008 Y220.805 E91.13328
G1 X158.837 Y221.149 E91.18869
G1 X86.355 Y221.139 E94.47938
G1 X85.6 Y221.036 E94.51398
G1 X84.839 Y220.73 E94.55121
G1 X84.27 Y220.361 E94.582
G1 X83.709 Y219.831 E94.61704
G1 X83.207 Y219.035 E94.65977
G1 X83.077 Y218.744 E94.67424
G1 X82.853 Y217.744 E94.72076
G1 X82.863 Y17.353 E103.81853
G1 X82.966 Y16.598 E103.85312
G0 F6000 X83.497 Y16.741
G1 F1800 X83.76 Y16.087 E103.88513
G1 X84.071 Y15.608 E103.91105
G1 X84.521 Y15.132 E103.94079
G1 X85.258 Y14.667 E103.98036
G1 X85.43 Y14.596 E103.9888
G1 X86.319 Y14.397 E104.03016
G1 X158.441 Y14.397 E107.30451
G1 X159.198 Y14.494 E107.33916
G1 X159.854 Y14.758 E107.37126
G1 X160.333 Y15.069 E107.39719
G1 X160.809 Y15.519 E107.42693
G1 X161.274 Y16.256 E107.46649
G1 X161.345 Y16.428 E107.47494
G1 X161.544 Y17.317 E107.5163
G1 X161.538 Y217.573 E116.60794
G1 X161.446 Y218.254 E116.63914
G1 X161.163 Y218.964 E116.67384
G1 X160.988 Y219.262 E116.68953
G1 X160.453 Y219.838 E116.72522
G1 X159.854 Y220.281 E116.75904
G1 X158.758 Y220.603 E116.8109
G1 X86.428 Y220.598 E120.09469
G1 X85.743 Y220.505 E120.12607
G1 X85.089 Y220.242 E120.15808
G1 X84.61 Y219.931 E120.18401
G1 X84.134 Y219.481 E120.21374
G1 X83.669 Y218.744 E120.25331
G1 X83.598 Y218.572 E120.26176
G1 X83.399 Y217.683 E120.30311
G1 X83.404 Y17.426 E129.3948
G1 X83.497 Y16.741 E129.42618
G0 F6000 X84.029 Y16.882
G1 F1800 X84.247 Y16.339 E129.45275
G1 X84.529 Y15.905 E129.47625
G1 X84.87 Y15.557 E129.49837
G1 X85.549 Y15.129 E129.53481
G1 X86.38 Y14.943 E129.57347
G1 X158.441 Y14.943 E132.84504
G1 X159.059 Y15.027 E132.87336
G1 X159.602 Y15.245 E132.89992
G1 X160.036 Y15.527 E132.92342
G1 X160.384 Y15.868 E132.94554
G1 X160.812 Y16.547 E132.98198
G1 X160.998 Y17.378 E133.02064
G1 X160.997 Y217.5 E142.1062
G1 X160.914 Y218.115 E142.13437
G1 X160.656 Y218.762 E142.16599
G1 X160.549 Y218.932 E142.17511
G1 X160.087 Y219.429 E142.20592
G1 X159.607 Y219.784 E142.23302
G1 X158.679 Y220.057 E142.27694
G1 X86.502 Y220.057 E145.55378
G1 X85.884 Y219.973 E145.5821
G1 X85.341 Y219.755 E145.60866
G1 X84.907 Y219.473 E145.63216
G1 X84.559 Y219.132 E145.65428
G1 X84.131 Y218.453 E145.69072
G1 X83.945 Y217.622 E145.72938
G1 X83.945 Y17.5 E154.81494
G1 X84.029 Y16.882 E154.84325
G0 F6000 X84.56 Y17.025
G1 F1800 X84.71 Y16.629 E154.86248
G1 X84.935 Y16.27 E154.88171
G1 X85.161 Y16.019 E154.89705
G1 X85.76 Y15.641 E154.9292
G1 X86.441 Y15.489 E154.96088
G1 X158.441 Y15.489 E158.22969
G1 X158.916 Y15.558 E158.25148
G1 X159.312 Y15.708 E158.2707
G1 X159.671 Y15.933 E158.28994
G1 X159.922 Y16.159 E158.30527
G1 X160.3 Y16.758 E158.33743
G1 X160.452 Y17.439 E158.36911
G1 X160.451 Y217.5 E167.45189
G1 X160.382 Y217.975 E167.47369
G1 X160.149 Y218.56 E167.50227
G1 X159.687 Y219.057 E167.53308
G1 X159.36 Y219.287 E167.55123
G1 X158.6 Y219.511 E167.5872
G1 X86.502 Y219.511 E170.86046
G1 X86.027 Y219.442 E170.88225
G1 X85.631 Y219.292 E170.90147
G1 X85.272 Y219.067 E170.92071
G1 X85.021 Y218.841 E170.93604
G1 X84.643 Y218.242 E170.9682
G1 X84.491 Y217.561 E170.99988
G1 X84.491 Y17.5 E180.08267
G1 X84.56 Y17.025 E180.10446
G0 F6000 X85.099 Y17.111
G1 F1800 X85.173 Y16.919 E180.1138
G1 X85.398 Y16.56 E180.13303
G1 X85.554 Y16.398 E180.14324
G1 X85.97 Y16.154 E180.16514
G1 X86.502 Y16.035 E180.18989
G1 X158.441 Y16.035 E183.45593
G1 X158.83 Y16.097 E183.47381
G1 X159.022 Y16.171 E183.48315
G1 X159.381 Y16.396 E183.50239
G1 X159.543 Y16.552 E183.5126
G1 X159.787 Y16.968 E183.53449
G1 X159.906 Y17.5 E183.55924
G1 X159.905 Y217.5 E192.63926
G1 X159.843 Y217.889 E192.65714
G1 X159.68 Y218.263 E192.67566
G1 X159.287 Y218.685 E192.70184
G1 X159.123 Y218.787 E192.71061
G1 X158.52 Y218.965 E192.73916
G1 X86.502 Y218.965 E196.00878
G1 X86.113 Y218.903 E196.02666
G1 X85.921 Y218.829 E196.03601
G1 X85.562 Y218.604 E196.05524
G1 X85.4 Y218.448 E196.06545
G1 X85.156 Y218.032 E196.08735
G1 X85.037 Y217.5 E196.1121
G1 X85.037 Y17.5 E205.19211
G1 X85.099 Y17.111 E205.21
G1 F1500 E204.21
G0 F6000 X86.168 Y17.333
G1 F1500 E205.21
G1 F1800 X86.279 Y17.201 E205.21783
G1 X86.502 Y17.127 E205.22849
G1 X158.441 Y17.127 E208.49453
G1 X158.608 Y17.166 E208.50232
G1 X158.74 Y17.277 E208.51015
G1 X158.814 Y17.5 E208.52081
G1 X158.813 Y217.5 E217.60083
G1 X158.774 Y217.667 E217.60862
G1 X158.663 Y217.799 E217.61645
G1 X158.44 Y217.873 E217.62711
G1 X86.502 Y217.873 E220.8931
G1 X86.335 Y217.834 E220.90089
G1 X86.203 Y217.723 E220.90872
G1 X86.129 Y217.5 E220.91939
G1 X86.129 Y17.5 E229.9994
G1 X86.168 Y17.333 E230.00719
G0 F6000 X85.636 Y17.209
G1 F1800 X85.861 Y16.85 E230.02643
G1 X86.107 Y16.683 E230.03992
G1 X86.502 Y16.581 E230.05845
G1 X158.441 Y16.581 E233.32448
G1 X158.732 Y16.634 E233.33791
G1 X159.091 Y16.859 E233.35715
G1 X159.258 Y17.105 E233.37065
G1 X159.36 Y17.5 E233.38917
G1 X159.359 Y217.5 E242.46918
G1 X159.306 Y217.791 E242.48261
G1 X159.192 Y218.018 E242.49414
G1 X158.919 Y218.281 E242.51135
G1 X158.44 Y218.419 E242.53399
G1 X86.502 Y218.419 E245.79998
G1 X86.211 Y218.366 E245.81341
G1 X85.852 Y218.141 E245.83264
G1 X85.685 Y217.895 E245.84614
G1 X85.583 Y217.5 E245.86466
G1 X85.583 Y17.5 E254.94468
G1 X85.636 Y17.209 E254.95811
G1 F1500 E253.95811
;MESH:suporte_canetas_quadro.stl
G0 F6000 X85.837 Y117.5
G0 X87.319 Y117.5
;TYPE:WALL-INNER
G1 F1500 E254.95811
G1 F1800 X87.319 Y216.681 E259.46093
G1 X157.621 Y216.681 E262.65265
G1 X157.621 Y18.319 E271.6583
G1 X87.319 Y18.319 E274.85002
G1 X87.319 Y117.5 E279.35284
G0 F6000 X86.773 Y117.5
;TYPE:WALL-OUTER
G1 F1800 X86.773 Y217.227 E283.88046
G1 X158.167 Y217.227 E287.12175
G1 X158.167 Y17.773 E296.17698
G1 X86.773 Y17.773 E299.41827
G1 X86.773 Y117.5 E303.94589
G0 F6000 X86.773 Y117.7
G1 F1500 E302.94589
G0 F6000 X87.781 Y117.5
;TYPE:SKIN
G1 F1500 E303.94589
G1 F1800 X87.781 Y18.781 E308.42774
G1 X157.159 Y18.781 E311.57751
G1 X157.159 Y216.219 E320.54121
G1 X87.781 Y216.219 E323.69097
G1 X87.781 Y117.5 E328.17282
G1 F1500 E327.17282
G0 F6000 X85.837 Y117.5
G0 X85.849 Y218.153
G0 X88.539 Y218.165
G0 X88.539 Y215.945
G1 F1500 E328.17282
G1 F1800 X88.054 Y215.46 E328.20396
G0 F6000 X88.054 Y214.688
G1 F1800 X89.311 Y215.945 E328.28467
G0 F6000 X90.083 Y215.945
G1 F1800 X88.054 Y213.916 E328.41494
G0 F6000 X88.054 Y213.144
G1 F1800 X90.855 Y215.945 E328.59478
G0 F6000 X91.628 Y215.945
G1 F1800 X88.054 Y212.372 E328.82422
G0 F6000 X88.054 Y211.6
G1 F1800 X92.4 Y215.945 E329.10323
G0 F6000 X93.172 Y215.945
G1 F1800 X88.054 Y210.827 E329.43183
G0 F6000 X88.054 Y210.055
G1 F1800 X93.944 Y215.945 E329.81
G0 F6000 X94.716 Y215.945
G1 F1800 X88.054 Y209.283 E330.23774
G0 F6000 X88.054 Y208.511
G1 F1800 X95.488 Y215.945 E330.71504
G0 F6000 X96.261 Y215.945
G1 F1800 X88.054 Y207.739 E331.24194
G0 F6000 X88.054 Y206.967
G1 F1800 X97.033 Y215.945 E331.81841
G0 F6000 X97.805 Y215.945
G1 F1800 X88.054 Y206.194 E332.44448
G0 F6000 X88.054 Y205.422
G1 F1800 X98.577 Y215.945 E333.12011
G0 F6000 X99.349 Y215.945
G1 F1800 X88.054 Y204.65 E333.84531
G0 F6000 X88.054 Y203.878
G1 F1800 X100.121 Y215.945 E334.62008
G0 F6000 X100.894 Y215.945
G1 F1800 X88.054 Y203.106 E335.44444
G0 F6000 X88.054 Y202.334
G1 F1800 X101.666 Y215.945 E336.31837
G0 F6000 X102.438 Y215.945
G1 F1800 X88.054 Y201.561 E337.2419
G0 F6000 X88.054 Y200.789
G1 F1800 X103.21 Y215.945 E338.215
G0 F6000 X103.982 Y215.945
G1 F1800 X88.054 Y200.017 E339.23767
G0 F6000 X88.054 Y199.245
G1 F1800 X104.754 Y215.945 E340.3099
G0 F6000 X105.526 Y215.945
G1 F1800 X88.054 Y198.473 E341.43169
G0 F6000 X88.054 Y197.701
G1 F1800 X106.299 Y215.945 E342.60309
G0 F6000 X107.071 Y215.945
G1 F1800 X88.054 Y196.929 E343.82405
G0 F6000 X88.054 Y196.156
G1 F1800 X107.843 Y215.945 E345.09461
G0 F6000 X108.615 Y215.945
G1 F1800 X88.054 Y195.384 E346.41474
G0 F6000 X88.054 Y194.612
G1 F1800 X109.387 Y215.945 E347.78443
G0 F6000 X110.159 Y215.945
G1 F1800 X88.054 Y193.84 E349.20369
G0 F6000 X88.054 Y193.068
G1 F1800 X110.932 Y215.945 E350.67255
G0 F6000 X111.704 Y215.945
G1 F1800 X88.054 Y192.296 E352.19098
G0 F6000 X88.054 Y191.523
G1 F1800 X112.476 Y215.945 E353.759
G0 F6000 X113.248 Y215.945
G1 F1800 X88.054 Y190.751 E355.3766
G0 F6000 X88.054 Y189.979
G1 F1800 X114.02 Y215.945 E357.04375
G0 F6000 X114.792 Y215.945
G1 F1800 X88.054 Y189.207 E358.76048
G0 F6000 X88.054 Y188.435
G1 F1800 X115.565 Y215.945 E360.5268
G0 F6000 X116.337 Y215.945
G1 F1800 X88.054 Y187.663 E362.34269
G0 F6000 X88.054 Y186.89
G1 F1800 X117.109 Y215.945 E364.20818
G0 F6000 X117.881 Y215.945
G1 F1800 X88.054 Y186.118 E366.12323
G0 F6000 X88.054 Y185.346
G1 F1800 X118.653 Y215.945 E368.08785
G0 F6000 X119.425 Y215.945
G1 F1800 X88.054 Y184.574 E370.10204
G0 F6000 X88.054 Y183.802
G1 F1800 X120.198 Y215.945 E372.16583
G0 F6000 X120.97 Y215.945
G1 F1800 X88.054 Y183.03 E374.27918
G0 F6000 X88.054 Y182.257
G1 F1800 X121.742 Y215.945 E376.44213
G0 F6000 X122.514 Y215.945
G1 F1800 X88.054 Y181.485 E378.65465
G0 F6000 X88.054 Y180.713
G1 F1800 X123.286 Y215.945 E380.91674
G0 F6000 X124.058 Y215.945
G1 F1800 X88.054 Y179.941 E383.22839
G0 F6000 X88.054 Y179.169
G1 F1800 X124.831 Y215.945 E385.58964
G0 F6000 X125.603 Y215.945
G1 F1800 X88.054 Y178.397 E388.00046
G0 F6000 X88.054 Y177.625
G1 F1800 X126.375 Y215.945 E390.46084
G0 F6000 X127.147 Y215.945
G1 F1800 X88.054 Y176.852 E392.97082
G0 F6000 X88.054 Y176.08
G1 F1800 X127.919 Y215.945 E395.53037
G0 F6000 X128.691 Y215.945
G1 F1800 X88.054 Y175.308 E398.13949
G0 F6000 X88.054 Y174.536
G1 F1800 X129.463 Y215.945 E400.79817
G0 F6000 X130.236 Y215.945
G1 F1800 X88.054 Y173.764 E403.50645
G0 F6000 X88.054 Y172.992
G1 F1800 X131.008 Y215.945 E406.2643
G0 F6000 X131.78 Y215.945
G1 F1800 X88.054 Y172.219 E409.07174
G0 F6000 X88.054 Y171.447
G1 F1800 X132.552 Y215.945 E411.92876
G0 F6000 X133.324 Y215.945
G1 F1800 X88.054 Y170.675 E414.83534
G0 F6000 X88.054 Y169.903
G1 F1800 X134.096 Y215.945 E417.79148
G0 F6000 X134.869 Y215.945
G1 F1800 X88.054 Y169.131 E420.79723
G0 F6000 X88.054 Y168.359
G1 F1800 X135.641 Y215.945 E423.85254
G0 F6000 X136.413 Y215.945
G1 F1800 X88.054 Y167.586 E426.95745
G0 F6000 X88.054 Y166.814
G1 F1800 X137.185 Y215.945 E430.11192
G0 F6000 X137.957 Y215.945
G1 F1800 X88.054 Y166.042 E433.31597
G0 F6000 X88.054 Y165.27
G1 F1800 X138.729 Y215.945 E436.56958
G0 F6000 X139.502 Y215.945
G1 F1800 X88.054 Y164.498 E439.87278
G0 F6000 X88.054 Y163.726
G1 F1800 X140.274 Y215.945 E443.22556
G0 F6000 X141.046 Y215.945
G1 F1800 X88.054 Y162.953 E446.62793
G0 F6000 X88.054 Y162.181
G1 F1800 X141.818 Y215.945 E450.07987
G0 F6000 X142.59 Y215.945
G1 F1800 X88.054 Y161.409 E453.58138
G0 F6000 X88.054 Y160.637
G1 F1800 X143.362 Y215.945 E457.13245
G0 F6000 X144.135 Y215.945
G1 F1800 X88.054 Y159.865 E460.73312
G0 F6000 X88.054 Y159.093
G1 F1800 X144.907 Y215.945 E464.38336
G0 F6000 X145.679 Y215.945
G1 F1800 X88.054 Y158.321 E468.08317
G0 F6000 X88.054 Y157.548
G1 F1800 X146.451 Y215.945 E471.83257
G0 F6000 X147.223 Y215.945
G1 F1800 X88.054 Y156.776 E475.63154
G0 F6000 X88.054 Y156.004
G1 F1800 X147.995 Y215.945 E479.48008
G0 F6000 X148.767 Y215.945
G1 F1800 X88.054 Y155.232 E483.37818
G0 F6000 X88.054 Y154.46
G1 F1800 X149.54 Y215.945 E487.32588
G0 F6000 X150.312 Y215.945
G1 F1800 X88.054 Y153.688 E491.32315
