;FLAVOR:Marlin
;TIME:3219
;Filament used: 1.56017m
;Layer height: 0.1
;MINX:99.298
;MINY:100.166
;MINZ:0.12
;MAXX:135.283
;MAXY:134.493
;MAXZ:38.02
;TARGET_MACHINE.NAME:ELEGOO NEPTUNE 3 Pro
;Generated with Cura_SteamEngine 5.10.2
M140 S70
M105
M190 S70
M104 S210
M105
M109 S210
;ELEGOO NEPTUNE 3 Pro
M220 S100 ;Set the feed speed to 100%
M221 S100 ;Set the flow rate to 100%
G90
G28 ;home
;M420 S1 Z10;Uncomment to enable progressive compensation height of 10mm
G92 E0 ;Reset Extruder
G1 Z0.45 F300
G1 X1.5 Y20 F5000.0 ;Move to start position
G1 Y120.0 F600.0 E15 ;Draw the first line
G1 X0.5 F1000.0 ;Move to side a little
G1 Y20 F600 E30 ;Draw the second line
G92 E0 ;Reset Extruder
M82 ;absolute extrusion mode
G92 E0
G92 E0
G1 F1500 E-1
;LAYER_COUNT:380
;LAYER:0
M107
M204 S500
G0 F6000 X103.694 Y109.588 Z0.12
;TYPE:SKIRT
G1 F1500 E0
G1 F1800 X105.384 Y108.357 E0.05695
G1 X106.578 Y107.714 E0.09389
G1 X108.519 Y106.981 E0.15041
G1 X109.251 Y106.823 E0.17081
G1 X109.552 Y106.12 E0.19164
G1 X110.608 Y104.472 E0.24496
G1 X111.869 Y103.087 E0.29598
G1 X113.365 Y101.928 E0.34753
G1 X114.994 Y101.054 E0.39789
G1 X116.831 Y100.452 E0.45055
G1 X118.759 Y100.166 E0.50364
G1 X120.728 Y100.225 E0.5573
G1 X122.686 Y100.556 E0.61139
G1 X123.774 Y100.877 E0.64229
G1 X126.042 Y101.866 E0.70969
G1 X127.235 Y102.574 E0.74748
G1 X128.769 Y103.709 E0.79946
G1 X130.225 Y105.058 E0.85353
G1 X131.299 Y106.274 E0.89772
G1 X132.433 Y107.843 E0.95046
G1 X133.46 Y109.646 E1.00698
G1 X134.185 Y111.302 E1.05622
G1 X134.641 Y112.663 E1.09532
G1 X135.119 Y114.864 E1.15668
G1 X135.283 Y116.591 E1.20393
G1 X135.262 Y118.086 E1.24466
G1 X134.956 Y120.263 E1.30454
G1 X134.608 Y121.517 E1.33999
G1 X133.581 Y123.812 E1.40848
G1 X132.788 Y125.043 E1.44837
G1 X131.48 Y126.474 E1.50118
G1 X130.079 Y127.573 E1.54969
G1 X128.356 Y128.494 E1.60291
G1 X126.499 Y129.095 E1.65607
G1 X124.653 Y129.374 E1.70693
G1 X123.919 Y129.36 E1.72693
G1 X123.332 Y130.142 E1.75356
G1 X121.99 Y131.491 E1.8054
G1 X120.333 Y132.69 E1.86111
G1 X119.273 Y133.26 E1.89389
G1 X117.179 Y134.047 E1.95483
G1 X115.432 Y134.39 E2.00333
G1 X113.955 Y134.493 E2.04366
G1 X111.619 Y134.317 E2.10747
G1 X110.29 Y134.03 E2.14451
G1 X108.331 Y133.346 E2.20103
G1 X106.657 Y132.524 E2.25183
G1 X105.562 Y131.611 E2.29067
G1 X104.888 Y130.712 E2.32127
G1 X104.442 Y129.779 E2.34944
G1 X104.159 Y128.705 E2.3797
G1 X104.114 Y128.13 E2.39541
G1 X104.212 Y126.985 E2.42671
G1 X104.495 Y125.942 E2.45615
G1 X104.244 Y125.947 E2.46299
G1 X103.547 Y125.859 E2.48213
G1 X102.505 Y125.506 E2.5121
G1 X101.45 Y124.885 E2.54544
G1 X100.858 Y124.374 E2.56675
G1 X100.137 Y123.448 E2.59872
G1 X99.576 Y122.176 E2.63658
G1 X99.344 Y120.718 E2.6768
G1 X99.298 Y119.533 E2.7091
G1 X99.492 Y117.28 E2.7707
G1 X99.932 Y115.415 E2.8229
G1 X100.374 Y114.212 E2.85781
G1 X101.493 Y112.131 E2.92217
G1 X102.388 Y110.937 E2.96282
G1 X103.694 Y109.588 E3.01397
G0 F6000 X104.051 Y110.004
G1 F1800 X105.645 Y108.837 E3.06778
G1 X106.771 Y108.225 E3.10269
G1 X108.712 Y107.492 E3.15921
G1 X109.641 Y107.301 E3.18504
G1 X110.037 Y106.376 E3.21245
G1 X111.041 Y104.808 E3.26317
G1 X112.243 Y103.488 E3.3118
G1 X113.664 Y102.387 E3.36077
G1 X115.208 Y101.559 E3.40849
G1 X116.958 Y100.985 E3.45866
G1 X118.789 Y100.713 E3.50909
G1 X120.638 Y100.764 E3.55947
G1 X122.531 Y101.08 E3.61175
G1 X123.619 Y101.401 E3.64265
G1 X125.763 Y102.336 E3.70637
G1 X126.956 Y103.044 E3.74416
G1 X128.398 Y104.11 E3.793
G1 X129.854 Y105.459 E3.84707
G1 X130.856 Y106.594 E3.88831
G1 X131.99 Y108.163 E3.94105
G1 X132.96 Y109.866 E3.99444
G1 X133.667 Y111.475 E4.04231
G1 X134.123 Y112.836 E4.08141
G1 X134.576 Y114.916 E4.1394
G1 X134.737 Y116.585 E4.18507
G1 X134.721 Y118.011 E4.22392
G1 X134.43 Y120.117 E4.28183
G1 X134.082 Y121.371 E4.31728
G1 X133.122 Y123.516 E4.3813
G1 X132.352 Y124.711 E4.42002
G1 X131.11 Y126.07 E4.47017
G1 X129.779 Y127.114 E4.51625
G1 X128.138 Y127.991 E4.56693
G1 X126.377 Y128.561 E4.61735
G1 X124.617 Y128.827 E4.66584
G1 X123.648 Y128.808 E4.69224
G1 X122.945 Y129.757 E4.72441
G1 X121.636 Y131.073 E4.77497
G1 X120.074 Y132.209 E4.82759
G1 X119.014 Y132.779 E4.86037
G1 X117.034 Y133.519 E4.91795
G1 X115.394 Y133.845 E4.9635
G1 X113.917 Y133.948 E5.00383
G1 X111.734 Y133.783 E5.06346
G1 X110.405 Y133.496 E5.1005
G1 X108.572 Y132.856 E5.15339
G1 X106.956 Y132.062 E5.20243
G1 X105.96 Y131.232 E5.23775
G1 X105.357 Y130.427 E5.26515
G1 X104.957 Y129.592 E5.29037
G1 X104.699 Y128.612 E5.31797
G1 X104.658 Y128.177 E5.32987
G1 X104.752 Y127.081 E5.35984
G1 X104.996 Y126.182 E5.38521
G1 X105.449 Y125.352 E5.41097
G1 X104.312 Y125.405 E5.44198
G1 X103.668 Y125.324 E5.45966
G1 X102.732 Y125.007 E5.48658
G1 X101.771 Y124.441 E5.51696
G1 X101.258 Y123.998 E5.53542
G1 X100.609 Y123.165 E5.56419
G1 X100.104 Y122.019 E5.5983
G1 X99.89 Y120.697 E5.63478
G1 X99.844 Y119.512 E5.66708
G1 X100.036 Y117.328 E5.72681
G1 X100.445 Y115.603 E5.7751
G1 X100.887 Y114.4 E5.81001
G1 X101.931 Y112.457 E5.87009
G1 X102.78 Y111.317 E5.90881
G1 X104.051 Y110.004 E5.95859
G1 F1500 E4.95859
G0 F6000 X103.919 Y119.362
G0 X103.969 Y120.582
G0 X104.784 Y121.42
G0 X111.08 Y121.375
G1 F1500 E5.95859
G1 F1800 X110.26 Y121.948 E5.98584
G1 X109.512 Y122.547 E6.01194
G1 X108.939 Y123.078 E6.03322
G1 X109.633 Y122.777 E6.05383
G1 X110.529 Y122.312 E6.08133
G1 X111.307 Y121.844 E6.10606
G1 X112.248 Y121.186 E6.13734
G1 X112.928 Y120.638 E6.16113
G1 X113.508 Y120.104 E6.1826
G1 X112.798 Y120.412 E6.20369
G1 X111.913 Y120.871 E6.23084
G1 X111.08 Y121.375 E6.25736
G0 F6000 X110.776 Y120.921
G1 F1800 X109.943 Y121.503 E6.28504
G1 X109.157 Y122.132 E6.31247
G1 X108.43 Y122.806 E6.33947
G1 X107.553 Y123.722 E6.37402
G1 X106.928 Y124.228 E6.39592
G1 X106.034 Y124.653 E6.42288
G1 X105.311 Y124.812 E6.44305
G1 X104.337 Y124.858 E6.46961
G1 X103.789 Y124.789 E6.48466
G1 X102.963 Y124.509 E6.50841
G1 X102.088 Y123.994 E6.53607
G1 X101.655 Y123.62 E6.55166
G1 X101.082 Y122.884 E6.57707
G1 X100.632 Y121.863 E6.60746
G1 X100.436 Y120.676 E6.64023
G1 X100.39 Y119.491 E6.67253
G1 X100.568 Y117.453 E6.72826
G1 X100.958 Y115.791 E6.77476
G1 X101.4 Y114.588 E6.80968
G1 X102.37 Y112.782 E6.86552
G1 X103.172 Y111.697 E6.90227
G1 X104.409 Y110.419 E6.95072
G1 X105.906 Y109.317 E7.00136
G1 X107.032 Y108.705 E7.03627
G1 X108.863 Y108.019 E7.08953
G1 X110.031 Y107.778 E7.12202
G1 X110.522 Y106.631 E7.156
G1 X111.474 Y105.144 E7.2041
G1 X112.617 Y103.889 E7.25034
G1 X113.963 Y102.846 E7.29672
G1 X115.422 Y102.064 E7.34181
G1 X117.086 Y101.518 E7.38952
G1 X118.82 Y101.26 E7.43727
G1 X120.623 Y101.31 E7.48641
G1 X122.376 Y101.604 E7.53483
G1 X123.464 Y101.925 E7.56573
G1 X125.484 Y102.806 E7.62576
G1 X126.677 Y103.514 E7.66355
G1 X128.027 Y104.511 E7.70926
G1 X129.483 Y105.86 E7.76333
G1 X130.413 Y106.914 E7.80162
G1 X131.547 Y108.483 E7.85435
G1 X132.46 Y110.086 E7.9046
G1 X133.149 Y111.648 E7.95111
G1 X133.605 Y113.009 E7.99021
G1 X134.033 Y114.969 E8.04486
G1 X134.191 Y116.581 E8.08898
G1 X134.18 Y117.938 E8.12594
G1 X133.904 Y119.971 E8.18183
G1 X133.556 Y121.225 E8.21728
G1 X132.663 Y123.22 E8.27682
G1 X131.916 Y124.379 E8.31438
G1 X130.74 Y125.666 E8.36187
G1 X129.479 Y126.655 E8.40552
G1 X127.92 Y127.488 E8.45367
G1 X126.255 Y128.027 E8.50135
G1 X124.581 Y128.28 E8.54746
G1 X123.376 Y128.256 E8.58029
G1 X122.558 Y129.372 E8.61799
G1 X121.28 Y130.656 E8.66733
G1 X119.815 Y131.728 E8.71678
G1 X118.755 Y132.298 E8.74957
G1 X116.882 Y132.993 E8.80399
G1 X115.356 Y133.3 E8.84639
G1 X113.879 Y133.403 E8.88672
G1 X111.849 Y133.249 E8.94218
G1 X110.52 Y132.962 E8.97921
G1 X108.813 Y132.366 E9.02846
G1 X107.253 Y131.599 E9.07582
G1 X106.36 Y130.855 E9.10748
G1 X105.826 Y130.142 E9.13174
G1 X105.472 Y129.403 E9.15407
G1 X105.241 Y128.546 E9.17824
G1 X105.202 Y128.224 E9.18708
G1 X105.292 Y127.177 E9.2157
G1 X105.507 Y126.385 E9.23806
G1 X106 Y125.48 E9.26613
G1 X106.696 Y124.731 E9.29398
G1 X107.543 Y124.159 E9.32182
G1 X108.972 Y123.659 E9.36306
G1 X109.869 Y123.27 E9.3897
G1 X110.8 Y122.787 E9.41827
G1 X111.596 Y122.308 E9.44357
G1 X112.581 Y121.619 E9.47632
G1 X113.287 Y121.05 E9.50102
G1 X113.974 Y120.417 E9.52647
G1 X114.591 Y119.753 E9.55116
G1 X115.163 Y119.031 E9.57625
G1 X114.974 Y119.063 E9.58147
G1 X114.27 Y119.247 E9.60129
G1 X113.449 Y119.534 E9.62498
G1 X112.555 Y119.922 E9.65153
G1 X111.652 Y120.391 E9.67925
G1 X110.776 Y120.921 E9.70714
G0 F6000 X110.472 Y120.467
G1 F1800 X109.626 Y121.058 E9.73525
G1 X108.794 Y121.724 E9.76428
G1 X108.059 Y122.405 E9.79157
G1 X107.209 Y123.298 E9.82516
G1 X106.634 Y123.764 E9.84532
G1 X105.856 Y124.133 E9.86877
G1 X105.238 Y124.269 E9.88601
G1 X104.363 Y124.311 E9.90987
G1 X103.909 Y124.253 E9.92234
G1 X103.19 Y124.01 E9.94301
G1 X102.413 Y123.552 E9.96758
G1 X102.05 Y123.239 E9.98064
G1 X101.555 Y122.603 E10.00259
G1 X101.158 Y121.703 E10.02939
G1 X100.982 Y120.655 E10.05833
G1 X100.936 Y119.47 E10.09064
G1 X101.1 Y117.578 E10.14237
G1 X101.49 Y115.916 E10.18887
G1 X101.912 Y114.778 E10.22193
G1 X102.809 Y113.107 E10.2736
G1 X103.611 Y112.022 E10.31035
G1 X104.767 Y110.834 E10.3555
G1 X106.23 Y109.757 E10.40499
G1 X107.291 Y109.186 E10.43781
G1 X109.053 Y108.531 E10.48902
G1 X110.42 Y108.256 E10.527
G1 X111.005 Y106.889 E10.5675
G1 X111.909 Y105.478 E10.61315
G1 X112.992 Y104.289 E10.65696
G1 X114.261 Y103.305 E10.7007
G1 X115.636 Y102.569 E10.74319
G1 X117.214 Y102.051 E10.78843
G1 X118.851 Y101.807 E10.83351
G1 X120.608 Y101.856 E10.88139
G1 X122.221 Y102.128 E10.92595
G1 X123.309 Y102.449 E10.95685
G1 X125.205 Y103.276 E11.0132
G1 X126.398 Y103.984 E11.05099
G1 X127.702 Y104.95 E11.09519
G1 X129.074 Y106.222 E11.14616
G1 X129.97 Y107.234 E11.18298
G1 X131.104 Y108.803 E11.23571
G1 X131.961 Y110.307 E11.28286
G1 X132.631 Y111.821 E11.32796
G1 X133.087 Y113.182 E11.36706
G1 X133.49 Y115.023 E11.4184
G1 X133.645 Y116.578 E11.46097
G1 X133.639 Y117.866 E11.49605
G1 X133.378 Y119.825 E11.54989
G1 X133.03 Y121.079 E11.58534
G1 X132.204 Y122.924 E11.6404
G1 X131.48 Y124.047 E11.6768
G1 X130.37 Y125.262 E11.72163
G1 X129.179 Y126.196 E11.76286
G1 X127.702 Y126.985 E11.80847
G1 X126.133 Y127.493 E11.85339
G1 X124.545 Y127.733 E11.89714
G1 X123.102 Y127.704 E11.93646
G1 X122.117 Y129.049 E11.98187
G1 X120.956 Y130.216 E12.02671
G1 X119.554 Y131.248 E12.07413
G1 X118.565 Y131.786 E12.1048
G1 X116.692 Y132.481 E12.15922
G1 X115.318 Y132.755 E12.19739
G1 X113.841 Y132.858 E12.23772
G1 X111.964 Y132.715 E12.28899
G1 X110.635 Y132.428 E12.32603
G1 X109.054 Y131.876 E12.37165
G1 X107.552 Y131.138 E12.41723
G1 X106.758 Y130.476 E12.44539
G1 X106.295 Y129.857 E12.46645
G1 X105.986 Y129.213 E12.48591
G1 X105.768 Y128.404 E12.50873
G1 X105.751 Y128.215 E12.5139
G1 X105.832 Y127.273 E12.53965
G1 X106.017 Y126.591 E12.5589
G1 X106.447 Y125.801 E12.5834
G1 X107.055 Y125.147 E12.60773
G1 X107.791 Y124.65 E12.63192
G1 X109.176 Y124.165 E12.67189
G1 X110.105 Y123.763 E12.69947
G1 X111.071 Y123.262 E12.72911
G1 X111.895 Y122.765 E12.75532
G1 X112.905 Y122.059 E12.78889
G1 X113.646 Y121.462 E12.81481
G1 X114.359 Y120.805 E12.84122
G1 X115.003 Y120.112 E12.86699
G1 X115.53 Y119.447 E12.89011
G1 X115.903 Y118.878 E12.90864
G1 X116.167 Y118.366 E12.92433
G1 X115.643 Y118.398 E12.93863
G1 X114.868 Y118.527 E12.96003
G1 X114.102 Y118.727 E12.9816
G1 X113.251 Y119.024 E13.00615
G1 X112.324 Y119.427 E13.03368
G1 X111.385 Y119.914 E13.0625
G1 X110.472 Y120.467 E13.09158
G0 F6000 X110.168 Y120.013
G1 F1800 X109.309 Y120.613 E13.12012
G1 X108.431 Y121.316 E13.15076
G1 X107.676 Y122.015 E13.17878
G1 X106.813 Y122.922 E13.21289
G1 X106.343 Y123.298 E13.22928
G1 X105.675 Y123.614 E13.24941
G1 X105.208 Y123.724 E13.26248
G1 X104.414 Y123.767 E13.28414
G1 X104.084 Y123.736 E13.29317
G1 X103.418 Y123.511 E13.31232
G1 X102.757 Y123.128 E13.33313
G1 X102.481 Y122.904 E13.34281
G1 X102.028 Y122.322 E13.3629
G1 X101.685 Y121.544 E13.38606
G1 X101.528 Y120.634 E13.41122
G1 X101.482 Y119.449 E13.44352
G1 X101.632 Y117.701 E13.49131
G1 X102.002 Y116.106 E13.53591
G1 X102.424 Y114.968 E13.56898
G1 X103.248 Y113.432 E13.61646
G1 X104.05 Y112.347 E13.65321
G1 X105.126 Y111.248 E13.69511
G1 X106.491 Y110.237 E13.74138
G1 X107.481 Y109.698 E13.77208
G1 X109.204 Y109.058 E13.82215
G1 X110.506 Y108.794 E13.85834
G1 X110.835 Y108.766 E13.86733
G1 X110.949 Y108.393 E13.87796
G1 X111.488 Y107.148 E13.91491
G1 X112.344 Y105.812 E13.95814
G1 X113.363 Y104.693 E13.99936
G1 X114.564 Y103.762 E14.04076
G1 X115.85 Y103.074 E14.08048
G1 X117.341 Y102.584 E14.12324
G1 X118.883 Y102.354 E14.1657
G1 X120.593 Y102.402 E14.2123
G1 X122.066 Y102.652 E14.253
G1 X123.154 Y102.973 E14.2839
G1 X124.926 Y103.746 E14.33656
G1 X126.119 Y104.454 E14.37435
G1 X127.331 Y105.351 E14.41543
G1 X128.666 Y106.585 E14.46495
G1 X129.527 Y107.554 E14.50026
G1 X130.661 Y109.123 E14.55299
G1 X131.462 Y110.529 E14.59707
G1 X132.113 Y111.994 E14.64074
G1 X132.569 Y113.355 E14.67984
G1 X132.947 Y115.078 E14.72789
G1 X133.099 Y116.575 E14.76888
G1 X133.093 Y117.863 E14.80396
G1 X132.852 Y119.679 E14.85387
G1 X132.504 Y120.933 E14.88932
G1 X131.745 Y122.628 E14.93991
G1 X131.044 Y123.715 E14.97514
G1 X130 Y124.858 E15.01731
G1 X128.879 Y125.737 E15.05611
G1 X127.484 Y126.482 E15.09919
G1 X126.011 Y126.959 E15.14137
G1 X124.509 Y127.186 E15.18275
G1 X122.786 Y127.151 E15.22969
G1 X122.626 Y127.435 E15.23857
G1 X121.677 Y128.725 E15.28219
G1 X120.631 Y129.777 E15.3226
G1 X119.293 Y130.768 E15.36796
G1 X118.304 Y131.306 E15.39863
G1 X116.543 Y131.954 E15.44974
G1 X115.28 Y132.21 E15.48485
G1 X113.803 Y132.313 E15.52518
G1 X112.079 Y132.181 E15.57228
G1 X110.75 Y131.894 E15.60931
G1 X109.235 Y131.361 E15.65306
G1 X107.853 Y130.678 E15.69505
G1 X107.156 Y130.097 E15.71977
G1 X106.765 Y129.574 E15.73756
G1 X106.499 Y129.021 E15.75428
G1 X106.295 Y128.262 E15.77568
G1 X106.372 Y127.369 E15.8001
G1 X106.527 Y126.797 E15.81624
G1 X106.894 Y126.122 E15.83717
G1 X107.411 Y125.566 E15.85785
G1 X108.042 Y125.14 E15.87859
G1 X109.38 Y124.672 E15.91721
G1 X110.341 Y124.256 E15.94573
G1 X111.33 Y123.743 E15.97608
G1 X112.205 Y123.215 E16.00392
G1 X113.218 Y122.507 E16.03758
G1 X114.004 Y121.874 E16.06507
G1 X114.75 Y121.186 E16.09272
G1 X115.415 Y120.471 E16.11932
G1 X115.974 Y119.766 E16.14382
G1 X116.378 Y119.15 E16.16389
G1 X116.681 Y118.561 E16.18193
G1 X116.89 Y117.899 E16.20084
G1 X116.183 Y117.818 E16.22023
G1 X115.579 Y117.855 E16.23671
G1 X114.76 Y117.991 E16.25933
G1 X113.945 Y118.204 E16.28227
G1 X113.047 Y118.518 E16.30819
G1 X112.088 Y118.934 E16.33666
G1 X111.118 Y119.437 E16.36643
G1 X110.168 Y120.013 E16.39669
G0 F6000 X109.874 Y119.552
G1 F1800 X108.979 Y120.178 E16.42644
G1 X108.068 Y120.908 E16.45824
G1 X107.293 Y121.625 E16.487
G1 X106.472 Y122.495 E16.51959
G1 X106.049 Y122.833 E16.53434
G1 X105.441 Y123.121 E16.55266
G1 X105.102 Y123.188 E16.56208
G1 X104.388 Y123.222 E16.58155
G1 X104.2 Y123.198 E16.58671
G1 X103.641 Y123.01 E16.60278
G1 X103.031 Y122.656 E16.62199
G1 X102.874 Y122.52 E16.62765
G1 X102.501 Y122.041 E16.64418
G1 X102.212 Y121.386 E16.66368
G1 X102.074 Y120.613 E16.68507
G1 X102.028 Y119.428 E16.71738
G1 X102.164 Y117.823 E16.76125
G1 X102.514 Y116.296 E16.80393
G1 X102.936 Y115.158 E16.83699
G1 X103.687 Y113.757 E16.88029
G1 X104.489 Y112.672 E16.91704
G1 X105.485 Y111.661 E16.9557
G1 X106.752 Y110.717 E16.99874
G1 X107.742 Y110.178 E17.02945
G1 X109.353 Y109.585 E17.07621
G1 X110.615 Y109.329 E17.11129
G1 X111.252 Y109.284 E17.12868
G1 X111.45 Y108.61 E17.14782
G1 X111.972 Y107.405 E17.18359
G1 X112.777 Y106.148 E17.22425
G1 X113.734 Y105.097 E17.26297
G1 X114.864 Y104.221 E17.30192
