;FLAVOR:Marlin
;TIME:2188
;Filament used: 2.11035m
;Layer height: 0.2
;MINX:100.713
;MINY:92.211
;MINZ:0.2
;MAXX:134.287
;MAXY:142.791
;MAXZ:20
;TARGET_MACHINE.NAME:ELEGOO NEPTUNE 3 Pro
;Generated with Cura_SteamEngine 5.10.2
M140 S70
M105
M190 S70
M104 S210
M105
M109 S210
;ELEGOO NEPTUNE 3 Pro
M220 S100 ;Set the feed speed to 100%
M221 S100 ;Set the flow rate to 100%
G90
G28 ;home
;M420 S1 Z10;Uncomment to enable progressive compensation height of 10mm
G92 E0 ;Reset Extruder
G1 Z0.45 F300
G1 X1.5 Y20 F5000.0 ;Move to start position
G1 Y120.0 F600.0 E15 ;Draw the first line
G1 X0.5 F1000.0 ;Move to side a little
G1 Y20 F600 E30 ;Draw the second line
G92 E0 ;Reset Extruder
M82 ;absolute extrusion mode
G92 E0
G92 E0
G1 F1500 E-1
;LAYER_COUNT:100
;LAYER:0
M107
M204 S500
G0 F6000 X101.849 Y94.251 Z0.2
;TYPE:SKIRT
G1 F1500 E0
G1 F1800 X102.621 Y93.433 E0.05106
G1 X103.737 Y92.744 E0.11061
G1 X104.301 Y92.501 E0.13849
G1 X105.572 Y92.216 E0.19763
G1 X126.663 Y92.211 E1.15516
G1 X127.977 Y92.483 E1.21608
G1 X129.276 Y93.125 E1.28186
G1 X130.442 Y94.229 E1.35477
G1 X131.14 Y95.433 E1.41795
G1 X134.107 Y104.391 E1.84637
G1 X134.287 Y105.304 E1.88862
G1 X134.287 Y134.929 E3.23359
G1 X133.997 Y136.179 E3.29185
G1 X133.709 Y136.917 E3.32782
G1 X133.046 Y137.932 E3.38286
G1 X129.445 Y141.534 E3.6141
G1 X128.298 Y142.265 E3.67585
G1 X127.433 Y142.582 E3.71767
G1 X126.42 Y142.791 E3.76463
G1 X123.634 Y142.765 E3.89112
G1 X122.675 Y142.635 E3.93506
G1 X121.585 Y142.196 E3.98841
G1 X120.75 Y141.654 E4.0336
G1 X119.932 Y140.882 E4.08467
G1 X119.243 Y139.766 E4.14421
G1 X119 Y139.202 E4.17209
G1 X118.715 Y137.931 E4.23123
G1 X118.715 Y105.785 E5.69066
G1 X105.632 Y105.762 E6.28463
G1 X104.673 Y105.632 E6.32857
G1 X103.583 Y105.193 E6.38191
G1 X102.748 Y104.651 E6.42711
G1 X101.93 Y103.879 E6.47817
G1 X101.241 Y102.763 E6.53772
G1 X100.999 Y102.2 E6.56554
G1 X100.713 Y100.92 E6.62509
G1 X100.738 Y97.135 E6.79693
G1 X100.868 Y96.176 E6.84087
G1 X101.307 Y95.086 E6.89421
G1 X101.849 Y94.251 E6.93941
G0 F6000 X102.279 Y94.591
G1 F1800 X102.97 Y93.859 E6.98511
G1 X103.953 Y93.246 E7.03771
G1 X104.471 Y93.023 E7.06331
G1 X105.634 Y92.762 E7.11742
G1 X126.605 Y92.757 E8.06951
G1 X127.797 Y93.004 E8.12477
G1 X128.961 Y93.579 E8.18372
G1 X130.01 Y94.572 E8.24929
G1 X130.639 Y95.658 E8.30627
G1 X133.571 Y104.497 E8.72906
G1 X133.741 Y105.359 E8.76895
G1 X133.741 Y134.864 E10.10848
G1 X133.488 Y135.981 E10.16048
G1 X133.221 Y136.666 E10.19386
G1 X132.619 Y137.587 E10.24381
G1 X129.1 Y141.107 E10.46978
G1 X128.055 Y141.773 E10.52604
G1 X127.323 Y142.047 E10.56153
G1 X126.366 Y142.244 E10.60588
G1 X123.707 Y142.224 E10.72661
G1 X122.814 Y142.103 E10.76752
G1 X121.839 Y141.71 E10.81525
G1 X121.09 Y141.224 E10.85578
G1 X120.358 Y140.533 E10.90148
G1 X119.745 Y139.55 E10.95408
G1 X119.522 Y139.032 E10.97968
G1 X119.261 Y137.869 E11.03379
G1 X119.261 Y105.24 E12.51515
G1 X105.705 Y105.221 E13.1306
G1 X104.812 Y105.1 E13.17151
G1 X103.837 Y104.707 E13.21924
G1 X103.088 Y104.221 E13.25977
G1 X102.356 Y103.53 E13.30547
G1 X101.743 Y102.547 E13.35807
G1 X101.52 Y102.029 E13.38367
G1 X101.259 Y100.861 E13.43801
G1 X101.279 Y97.208 E13.60386
G1 X101.4 Y96.315 E13.64477
G1 X101.793 Y95.34 E13.69249
G1 X102.279 Y94.591 E13.73303
G0 F6000 X102.709 Y94.931
G1 F1800 X103.32 Y94.284 E13.77343
G1 X104.242 Y93.709 E13.82276
G1 X104.637 Y93.545 E13.84218
G1 X105.695 Y93.308 E13.89141
G1 X126.547 Y93.303 E14.83809
G1 X127.617 Y93.525 E14.8877
G1 X128.646 Y94.033 E14.9398
G1 X129.578 Y94.915 E14.99806
G1 X130.139 Y95.883 E15.04885
G1 X133.035 Y104.603 E15.466
G1 X133.195 Y105.414 E15.50353
G1 X133.195 Y134.8 E16.83766
G1 X132.955 Y135.86 E16.887
G1 X132.733 Y136.415 E16.91414
G1 X132.192 Y137.242 E16.959
G1 X128.755 Y140.68 E17.17971
G1 X127.81 Y141.282 E17.23058
G1 X127.213 Y141.512 E17.25962
G1 X126.311 Y141.698 E17.30144
G1 X123.781 Y141.683 E17.4163
G1 X122.957 Y141.571 E17.45405
G1 X122.089 Y141.222 E17.49653
G1 X121.43 Y140.794 E17.5322
G1 X120.783 Y140.183 E17.5726
G1 X120.208 Y139.261 E17.62194
G1 X120.044 Y138.866 E17.64135
G1 X119.807 Y137.808 E17.69058
G1 X119.807 Y104.695 E19.19391
G1 X105.779 Y104.68 E19.83078
G1 X104.955 Y104.568 E19.86854
G1 X104.087 Y104.219 E19.91101
G1 X103.428 Y103.791 E19.94669
G1 X102.781 Y103.18 E19.98709
G1 X102.206 Y102.258 E20.03642
G1 X102.042 Y101.863 E20.05584
G1 X101.805 Y100.802 E20.10519
G1 X101.82 Y97.282 E20.265
G1 X101.932 Y96.458 E20.30276
G1 X102.281 Y95.59 E20.34523
G1 X102.709 Y94.931 E20.3809
G0 F6000 X103.139 Y95.271
G1 F1800 X103.669 Y94.71 E20.41594
G1 X104.465 Y94.208 E20.45867
G1 X104.756 Y94.078 E20.47314
G1 X105.756 Y93.854 E20.51966
G1 X126.489 Y93.849 E21.46094
G1 X127.437 Y94.046 E21.5049
G1 X128.331 Y94.487 E21.55016
G1 X129.146 Y95.258 E21.60109
G1 X129.639 Y96.108 E21.6457
G1 X132.499 Y104.709 E22.05721
G1 X132.649 Y105.469 E22.09238
G1 X132.649 Y134.736 E23.42111
G1 X132.422 Y135.739 E23.46779
G1 X132.248 Y136.159 E23.48843
G1 X131.765 Y136.897 E23.52848
G1 X128.412 Y140.251 E23.74379
G1 X127.561 Y140.793 E23.7896
G1 X127.061 Y140.986 E23.81393
G1 X126.256 Y141.152 E23.85124
G1 X123.855 Y141.142 E23.96025
G1 X123.1 Y141.039 E23.99485
G1 X122.339 Y140.733 E24.03208
G1 X121.77 Y140.364 E24.06287
G1 X121.209 Y139.834 E24.09791
G1 X120.707 Y139.038 E24.14064
G1 X120.577 Y138.747 E24.15511
G1 X120.353 Y137.747 E24.20163
G1 X120.353 Y104.149 E25.72698
G1 X105.853 Y104.139 E26.38528
G1 X105.098 Y104.036 E26.41988
G1 X104.337 Y103.73 E26.45712
G1 X103.768 Y103.361 E26.48791
G1 X103.207 Y102.831 E26.52294
G1 X102.705 Y102.035 E26.56567
G1 X102.575 Y101.744 E26.58014
G1 X102.351 Y100.742 E26.62675
G1 X102.361 Y97.356 E26.78048
G1 X102.464 Y96.601 E26.81507
G1 X102.77 Y95.84 E26.85231
G1 X103.139 Y95.271 E26.8831
G0 F6000 X103.569 Y95.611
G1 F1800 X104.019 Y95.135 E26.91284
G1 X104.756 Y94.67 E26.9524
G1 X104.928 Y94.599 E26.96085
G1 X105.817 Y94.4 E27.00221
G1 X126.431 Y94.395 E27.93809
G1 X127.259 Y94.567 E27.97648
G1 X128.018 Y94.941 E28.01489
G1 X128.713 Y95.599 E28.05835
G1 X129.138 Y96.332 E28.09681
G1 X131.963 Y104.815 E28.50274
G1 X132.103 Y105.524 E28.53555
G1 X132.103 Y134.676 E29.85905
G1 X131.912 Y135.544 E29.8994
G1 X131.791 Y135.86 E29.91476
G1 X131.338 Y136.552 E29.95231
G1 X128.069 Y139.822 E30.16223
G1 X127.268 Y140.332 E30.20534
G1 X126.951 Y140.451 E30.22071
G1 X126.2 Y140.606 E30.25553
G1 X123.928 Y140.601 E30.35868
G1 X123.243 Y140.508 E30.39006
G1 X122.589 Y140.245 E30.42207
G1 X122.11 Y139.934 E30.44799
G1 X121.634 Y139.484 E30.47773
G1 X121.169 Y138.747 E30.5173
G1 X121.098 Y138.575 E30.52574
G1 X120.899 Y137.686 E30.5671
G1 X120.899 Y103.603 E32.11447
G1 X105.926 Y103.598 E32.79425
G1 X105.241 Y103.505 E32.82563
G1 X104.587 Y103.242 E32.85764
G1 X104.108 Y102.931 E32.88356
G1 X103.632 Y102.481 E32.9133
G1 X103.167 Y101.744 E32.95287
G1 X103.096 Y101.572 E32.96131
G1 X102.897 Y100.682 E33.00272
G1 X102.902 Y97.429 E33.1504
G1 X102.995 Y96.744 E33.18179
G1 X103.258 Y96.09 E33.21379
G1 X103.569 Y95.611 E33.23972
G0 F6000 X104.027 Y95.908
G1 F1800 X104.368 Y95.56 E33.26184
G1 X105.047 Y95.132 E33.29828
G1 X105.878 Y94.946 E33.33694
G1 X126.373 Y94.941 E34.26742
G1 X127.081 Y95.088 E34.30024
G1 X127.702 Y95.394 E34.33167
G1 X128.281 Y95.942 E34.36787
G1 X128.637 Y96.556 E34.40009
G1 X131.445 Y104.988 E34.80357
G1 X131.557 Y105.575 E34.8307
G1 X131.557 Y134.618 E36.14926
G1 X131.379 Y135.427 E36.18687
G1 X131.303 Y135.609 E36.19582
G1 X130.911 Y136.207 E36.22828
G1 X127.724 Y139.395 E36.43294
G1 X127.024 Y139.841 E36.47062
G1 X126.841 Y139.916 E36.4796
G1 X126.144 Y140.06 E36.51191
G1 X124.002 Y140.06 E36.60916
G1 X123.384 Y139.976 E36.63747
G1 X122.841 Y139.758 E36.66404
G1 X122.407 Y139.476 E36.68754
G1 X122.059 Y139.135 E36.70966
G1 X121.631 Y138.456 E36.74609
G1 X121.445 Y137.625 E36.78476
G1 X121.445 Y103.057 E38.35415
G1 X106 Y103.057 E39.05535
G1 X105.382 Y102.973 E39.08367
G1 X104.839 Y102.755 E39.11023
G1 X104.405 Y102.473 E39.13373
G1 X104.057 Y102.132 E39.15585
G1 X103.629 Y101.453 E39.19229
G1 X103.443 Y100.622 E39.23095
G1 X103.443 Y97.503 E39.37255
G1 X103.527 Y96.885 E39.40087
G1 X103.745 Y96.342 E39.42743
G1 X104.027 Y95.908 E39.45093
G0 F6000 X104.433 Y96.273
G1 F1800 X104.659 Y96.022 E39.46626
G1 X105.258 Y95.644 E39.49842
G1 X105.939 Y95.492 E39.5301
G1 X126.315 Y95.487 E40.45517
G1 X126.903 Y95.609 E40.48243
G1 X127.386 Y95.847 E40.50688
G1 X127.849 Y96.285 E40.53582
G1 X128.137 Y96.781 E40.56186
G1 X130.927 Y105.16 E40.9628
G1 X131.011 Y105.625 E40.98425
G1 X131.011 Y134.56 E42.2979
G1 X130.846 Y135.31 E42.33277
G1 X130.484 Y135.862 E42.36273
G1 X127.379 Y138.968 E42.56212
G1 X126.731 Y139.381 E42.59701
G1 X126.087 Y139.514 E42.62687
G1 X124.002 Y139.514 E42.72152
G1 X123.527 Y139.445 E42.74332
G1 X123.131 Y139.295 E42.76254
G1 X122.772 Y139.07 E42.78178
G1 X122.521 Y138.844 E42.79711
G1 X122.143 Y138.245 E42.82927
G1 X121.991 Y137.564 E42.86094
G1 X121.991 Y102.511 E44.45235
G1 X106 Y102.511 E45.17835
G1 X105.525 Y102.442 E45.20014
G1 X105.129 Y102.292 E45.21936
G1 X104.77 Y102.067 E45.2386
G1 X104.519 Y101.841 E45.25393
G1 X104.141 Y101.242 E45.28609
G1 X103.989 Y100.561 E45.31777
G1 X103.989 Y97.503 E45.4566
G1 X104.058 Y97.028 E45.47839
G1 X104.208 Y96.632 E45.49762
G1 X104.433 Y96.273 E45.51685
G0 F6000 X104.896 Y96.563
G1 F1800 X105.052 Y96.401 E45.52706
G1 X105.468 Y96.157 E45.54896
G1 X106 Y96.038 E45.57371
G1 X126.257 Y96.033 E46.49338
G1 X126.792 Y96.144 E46.51818
G1 X127.124 Y96.326 E46.53537
G1 X127.384 Y96.571 E46.55159
G1 X127.619 Y96.953 E46.57195
G1 X130.409 Y105.332 E46.9729
G1 X130.465 Y105.625 E46.98644
G1 X130.465 Y134.502 E48.29746
G1 X130.335 Y135.094 E48.32497
G1 X130.098 Y135.476 E48.34538
G1 X127.036 Y138.539 E48.54201
G1 X126.522 Y138.866 E48.56967
G1 X126.087 Y138.968 E48.58995
G1 X124.002 Y138.968 E48.68461
G1 X123.613 Y138.906 E48.7025
G1 X123.421 Y138.832 E48.71184
G1 X123.062 Y138.607 E48.73107
G1 X122.9 Y138.451 E48.74128
G1 X122.656 Y138.035 E48.76318
G1 X122.537 Y137.503 E48.78793
G1 X122.537 Y101.965 E50.40136
G1 X106 Y101.965 E51.15214
G1 X105.611 Y101.903 E51.17002
G1 X105.419 Y101.829 E51.17936
G1 X105.06 Y101.604 E51.1986
G1 X104.898 Y101.448 E51.20881
G1 X104.654 Y101.032 E51.23071
G1 X104.535 Y100.5 E51.25546
G1 X104.535 Y97.503 E51.39152
G1 X104.597 Y97.114 E51.4094
G1 X104.671 Y96.922 E51.41875
G1 X104.896 Y96.563 E51.43798
G1 F1500 E50.43798
G0 F6000 X105.777 Y97.204
G1 F1500 E51.43798
G1 F1800 X106 Y97.13 E51.44865
G1 X126.257 Y97.125 E52.36832
G1 X126.424 Y97.164 E52.3761
G1 X126.583 Y97.297 E52.38551
G1 X129.373 Y105.676 E52.78646
G1 X129.373 Y134.502 E54.09516
G1 X129.326 Y134.704 E54.10457
G1 X126.264 Y137.767 E54.3012
G1 X126.087 Y137.876 E54.31064
G1 X124.002 Y137.876 E54.4053
G1 X123.835 Y137.837 E54.41309
G1 X123.703 Y137.726 E54.42092
G1 X123.629 Y137.503 E54.43158
G1 X123.629 Y100.873 E56.09459
G1 X106 Y100.873 E56.89495
G1 X105.833 Y100.834 E56.90273
G1 X105.701 Y100.723 E56.91056
G1 X105.627 Y100.5 E56.92123
G1 X105.627 Y97.503 E57.05729
G1 X105.666 Y97.336 E57.06508
G1 X105.777 Y97.204 E57.07291
G0 F6000 X105.605 Y96.686
G1 F1800 X106 Y96.584 E57.09143
G1 X126.257 Y96.579 E58.0111
G1 X126.548 Y96.632 E58.02453
G1 X126.774 Y96.745 E58.036
G1 X126.933 Y96.878 E58.04541
G1 X127.101 Y97.125 E58.05897
G1 X129.891 Y105.504 E58.45991
G1 X129.919 Y105.676 E58.46783
G1 X129.919 Y134.502 E59.77653
G1 X129.858 Y134.828 E59.79159
G1 X129.712 Y135.09 E59.8052
G1 X126.65 Y138.153 E60.00183
G1 X126.373 Y138.341 E60.01703
G1 X126.087 Y138.422 E60.03053
G1 X124.002 Y138.422 E60.12518
G1 X123.711 Y138.369 E60.13861
G1 X123.352 Y138.144 E60.15785
G1 X123.185 Y137.898 E60.17135
G1 X123.083 Y137.503 E60.18987
G1 X123.083 Y101.419 E61.82809
G1 X106 Y101.419 E62.60366
G1 X105.709 Y101.366 E62.61708
G1 X105.35 Y101.141 E62.63632
G1 X105.183 Y100.895 E62.64982
G1 X105.081 Y100.5 E62.66834
G1 X105.081 Y97.503 E62.8044
G1 X105.134 Y97.212 E62.81783
G1 X105.359 Y96.853 E62.83707
G1 X105.605 Y96.686 E62.85057
G1 F1500 E61.85057
;MESH:suporte_quadrobranco (1).stl
G0 F6000 X105.335 Y99.681
G0 X106.819 Y99.681
;TYPE:WALL-INNER
G1 F1500 E62.85057
G1 F1800 X124 Y99.681 E63.63058
G1 X124.508 Y99.857 E63.65499
G1 X124.722 Y100.111 E63.67007
G1 X124.819 Y100.406 E63.68417
G1 X124.819 Y136.681 E65.33106
G1 X125.657 Y136.681 E65.3691
G1 X128.181 Y134.16 E65.53106
G1 X128.181 Y105.873 E66.81529
G1 X125.665 Y98.315 E67.17694
G1 X106.819 Y98.319 E68.03255
G1 X106.819 Y99.681 E68.09439
G0 F6000 X106.273 Y100.227
;TYPE:WALL-OUTER
G1 F1800 X124 Y100.227 E68.89919
G1 X124.17 Y100.285 E68.90735
G1 X124.271 Y100.459 E68.91648
G1 X124.273 Y137.227 E70.58575
G1 X125.883 Y137.227 E70.65885
G1 X128.727 Y134.386 E70.84135
G1 X128.727 Y105.785 E72.13984
G1 X126.059 Y97.769 E72.52339
G1 X106.273 Y97.773 E73.42168
G1 X106.273 Y100.227 E73.53309
G0 F6000 X106.473 Y100.227
G1 F1500 E72.53309
G0 F6000 X107.254 Y99.246
;TYPE:SKIN
G1 F1500 E73.53309
G1 F1997.6 X107.254 Y98.754 E73.55322
G1 F1993.5 X123.984 Y98.751 E74.23903
G1 F1764.5 X124.829 Y98.815 E74.27828
G1 F1519 X125.285 Y98.842 E74.30286
G1 F1458.2 X125.362 Y99.073 E74.3165
G1 F1530.8 X125.625 Y99.656 E74.35065
G1 F1640.7 X126.323 Y101.754 E74.46077
G1 F1700.3 X127.021 Y103.852 E74.56704
G1 F1764.5 X127.719 Y105.95 E74.66944
G1 F1800 X127.719 Y133.966 E75.94137
G1 X125.463 Y136.219 E76.08612
G1 X125.281 Y136.219 E76.09439
G1 F1793.4 X125.28 Y100.351 E77.72876
G1 F1764.5 X125.101 Y99.839 E77.75388
G1 F1585.2 X124.835 Y99.445 E77.77839
G1 F1677.1 X124.038 Y99.245 E77.81843
G1 F1981.5 X107.254 Y99.246 E78.51064
G1 F1500 E77.51064
G0 F6000 X107.254 Y101.165
G0 X123.349 Y101.153
G0 X125.551 Y100.842
G1 F1500 E78.51064
G1 F1800 X125.823 Y101.113 E78.52807
G0 F6000 X125.551 Y101.614
G1 F1800 X126.208 Y102.271 E78.57026
G0 F6000 X125.551 Y102.386
G1 F1800 X126.593 Y103.428 E78.63716
G1 F1500 E77.63716
G0 F6000 X125.551 Y103.158
G1 F1500 E78.63716
G1 F1800 X126.978 Y104.585 E78.72878
G1 X127.052 Y104.659
G1 F1500 E77.72878
G0 F6000 X127.363 Y105.743
G1 F1500 E78.72878
G1 F1800 X125.551 Y103.931 E78.84512
G0 F6000 X125.551 Y104.703
G1 F1800 X127.446 Y106.598 E78.96679
G0 F6000 X127.446 Y107.37
G1 F1800 X125.551 Y105.475 E79.08846
G0 F6000 X125.551 Y106.247
G1 F1800 X127.446 Y108.142 E79.21013
G0 F6000 X127.446 Y108.914
G1 F1800 X125.551 Y107.019 E79.3318
G0 F6000 X125.551 Y107.791
G1 F1800 X127.446 Y109.686 E79.45347
G0 F6000 X127.446 Y110.459
G1 F1800 X125.551 Y108.564 E79.57514
G0 F6000 X125.552 Y109.336
G1 F1800 X127.446 Y111.231 E79.69677
G0 F6000 X127.446 Y112.003
G1 F1800 X125.552 Y110.109 E79.81838
G0 F6000 X125.552 Y110.881
G1 F1800 X127.446 Y112.775 E79.93998
G0 F6000 X127.446 Y113.547
G1 F1800 X125.552 Y111.653 E80.06159
G0 F6000 X125.552 Y112.425
G1 F1800 X127.446 Y114.319 E80.18319
G0 F6000 X127.446 Y115.092
G1 F1800 X125.552 Y113.197 E80.30483
G0 F6000 X125.552 Y113.969
G1 F1800 X127.446 Y115.864 E80.42647
G0 F6000 X127.446 Y116.636
G1 F1800 X125.552 Y114.742 E80.54807
G0 F6000 X125.552 Y115.514
G1 F1800 X127.446 Y117.408 E80.66968
G0 F6000 X127.446 Y118.18
G1 F1800 X125.552 Y116.286 E80.79128
G0 F6000 X125.552 Y117.058
G1 F1800 X127.446 Y118.952 E80.91289
G0 F6000 X127.446 Y119.724
G1 F1800 X125.552 Y117.83 E81.03449
G0 F6000 X125.552 Y118.603
G1 F1800 X127.446 Y120.497 E81.1561
G0 F6000 X127.446 Y121.269
G1 F1800 X125.552 Y119.375 E81.2777
G0 F6000 X125.552 Y120.147
M104 S205
G1 F1800 X127.446 Y122.041 E81.39931
G0 F6000 X127.446 Y122.813
G1 F1800 X125.552 Y120.92 E81.52088
G0 F6000 X125.552 Y121.692
G1 F1800 X127.446 Y123.585 E81.64245
G0 F6000 X127.446 Y124.357
