;FLAVOR:Marlin
;TIME:1351
;Filament used: 1.2556m
;Layer height: 0.2
;MINX:100.713
;MINY:100.719
;MINZ:0.2
;MAXX:134.287
;MAXY:134.285
;MAXZ:20
;TARGET_MACHINE.NAME:ELEGOO NEPTUNE 3 Pro
;Generated with Cura_SteamEngine 5.10.2
M140 S70
M105
M190 S70
M104 S210
M105
M109 S210
;ELEGOO NEPTUNE 3 Pro
M220 S100 ;Set the feed speed to 100%
M221 S100 ;Set the flow rate to 100%
G90
G28 ;home
;M420 S1 Z10;Uncomment to enable progressive compensation height of 10mm
G92 E0 ;Reset Extruder
G1 Z0.45 F300
G1 X1.5 Y20 F5000.0 ;Move to start position
G1 Y120.0 F600.0 E15 ;Draw the first line
G1 X0.5 F1000.0 ;Move to side a little
G1 Y20 F600 E30 ;Draw the second line
G92 E0 ;Reset Extruder
M82 ;absolute extrusion mode
G92 E0
G92 E0
G1 F1500 E-1
;LAYER_COUNT:100
;LAYER:0
M107
M204 S500
G0 F6000 X102.621 Y101.941 Z0.2
;TYPE:SKIRT
G1 F1500 E0
G1 F1800 X103.737 Y101.252 E0.05954
G1 X104.301 Y101.009 E0.08743
G1 X105.572 Y100.724 E0.14656
G1 X126.552 Y100.719 E1.09906
G1 X127.903 Y100.965 E1.1614
G1 X129.021 Y101.494 E1.21755
G1 X129.842 Y102.115 E1.26429
G1 X130.681 Y103.09 E1.32269
G1 X133.829 Y108.753 E1.61684
G1 X134.287 Y110.327 E1.69126
G1 X134.287 Y127.641 E2.47732
G1 X134.035 Y129.01 E2.54052
G1 X133.36 Y130.362 E2.60912
G1 X132.587 Y131.192 E2.66062
G1 X131.904 Y131.778 E2.70147
G1 X127.988 Y133.933 E2.9044
G1 X126.421 Y134.285 E2.97732
G1 X124.769 Y134.267 E3.05232
G1 X123.677 Y134.127 E3.10231
G1 X122.585 Y133.688 E3.15574
G1 X121.75 Y133.146 E3.20093
G1 X120.932 Y132.374 E3.252
G1 X120.243 Y131.258 E3.31154
G1 X120 Y130.694 E3.33942
G1 X119.715 Y129.423 E3.39856
G1 X119.715 Y114.294 E4.08542
G1 X105.632 Y114.271 E4.72479
G1 X104.673 Y114.141 E4.76873
G1 X103.583 Y113.702 E4.82207
G1 X102.748 Y113.16 E4.86727
G1 X101.93 Y112.388 E4.91833
G1 X101.241 Y111.272 E4.97788
G1 X100.999 Y110.709 E5.0057
G1 X100.713 Y109.429 E5.06525
G1 X100.738 Y105.643 E5.23713
G1 X100.868 Y104.684 E5.28107
G1 X101.307 Y103.594 E5.33442
G1 X101.849 Y102.759 E5.37961
G1 X102.621 Y101.941 E5.43068
G0 F6000 X102.97 Y102.367
G1 F1800 X103.953 Y101.754 E5.48327
G1 X104.471 Y101.531 E5.50888
G1 X105.634 Y101.27 E5.56299
G1 X126.503 Y101.265 E6.51045
G1 X127.732 Y101.489 E6.56716
G1 X128.738 Y101.965 E6.61769
G1 X129.467 Y102.516 E6.65918
G1 X130.232 Y103.405 E6.71242
G1 X133.322 Y108.964 E7.00117
G1 X133.741 Y110.404 E7.06926
G1 X133.741 Y127.591 E7.84955
G1 X133.512 Y128.837 E7.90707
G1 X132.908 Y130.046 E7.96842
G1 X132.231 Y130.778 E8.01369
G1 X131.59 Y131.328 E8.05204
G1 X127.795 Y133.416 E8.24869
G1 X126.362 Y133.738 E8.31537
G1 X124.775 Y133.721 E8.38742
G1 X123.815 Y133.595 E8.43138
G1 X122.839 Y133.202 E8.47915
G1 X122.09 Y132.716 E8.51968
G1 X121.358 Y132.025 E8.56538
G1 X120.745 Y131.042 E8.61798
G1 X120.522 Y130.524 E8.64358
G1 X120.261 Y129.361 E8.69769
G1 X120.261 Y113.749 E9.40648
G1 X105.705 Y113.73 E10.06733
G1 X104.812 Y113.609 E10.10824
G1 X103.837 Y113.216 E10.15596
G1 X103.088 Y112.73 E10.1965
G1 X102.356 Y112.039 E10.2422
G1 X101.743 Y111.056 E10.2948
G1 X101.52 Y110.538 E10.3204
G1 X101.259 Y109.37 E10.37473
G1 X101.279 Y105.716 E10.54063
G1 X101.4 Y104.823 E10.58154
G1 X101.793 Y103.848 E10.62927
G1 X102.279 Y103.099 E10.6698
G1 X102.97 Y102.367 E10.7155
G0 F6000 X103.32 Y102.792
G1 F1800 X104.242 Y102.217 E10.76484
G1 X104.637 Y102.053 E10.78425
G1 X105.695 Y101.816 E10.83348
G1 X126.454 Y101.811 E11.77594
G1 X127.561 Y102.013 E11.82703
G1 X128.455 Y102.436 E11.87193
G1 X129.092 Y102.917 E11.90817
G1 X129.783 Y103.72 E11.95626
G1 X132.815 Y109.175 E12.2396
G1 X133.195 Y110.481 E12.30135
G1 X133.195 Y127.541 E13.07588
G1 X132.989 Y128.664 E13.12772
G1 X132.455 Y129.732 E13.18193
G1 X131.875 Y130.364 E13.22087
G1 X131.276 Y130.878 E13.2567
G1 X127.602 Y132.899 E13.44707
G1 X126.303 Y133.191 E13.50752
G1 X124.781 Y133.175 E13.57662
G1 X123.957 Y133.063 E13.61438
G1 X123.089 Y132.714 E13.65685
G1 X122.43 Y132.286 E13.69253
G1 X121.783 Y131.675 E13.73293
G1 X121.208 Y130.753 E13.78226
G1 X121.044 Y130.358 E13.80168
G1 X120.807 Y129.3 E13.8509
G1 X120.807 Y113.204 E14.58166
G1 X105.779 Y113.189 E15.26393
G1 X104.955 Y113.077 E15.30169
G1 X104.087 Y112.728 E15.34416
G1 X103.428 Y112.3 E15.37983
G1 X102.781 Y111.689 E15.42024
G1 X102.206 Y110.767 E15.46957
G1 X102.042 Y110.372 E15.48899
G1 X101.805 Y109.311 E15.53834
G1 X101.82 Y105.79 E15.6982
G1 X101.932 Y104.966 E15.73595
G1 X102.281 Y104.098 E15.77842
G1 X102.709 Y103.439 E15.8141
G1 X103.32 Y102.792 E15.8545
G0 F6000 X103.669 Y103.218
G1 F1800 X104.465 Y102.716 E15.89723
G1 X104.756 Y102.586 E15.9117
G1 X105.756 Y102.362 E15.95822
G1 X126.405 Y102.357 E16.89569
G1 X127.39 Y102.537 E16.94115
G1 X128.172 Y102.907 E16.98042
G1 X128.717 Y103.318 E17.01141
G1 X129.334 Y104.035 E17.05436
G1 X132.308 Y109.386 E17.33229
G1 X132.649 Y110.558 E17.38771
G1 X132.649 Y127.492 E18.15651
G1 X132.466 Y128.49 E18.20258
G1 X132.002 Y129.419 E18.24972
G1 X131.519 Y129.95 E18.28231
G1 X130.962 Y130.428 E18.31564
G1 X127.409 Y132.383 E18.49975
G1 X126.245 Y132.644 E18.55391
G1 X124.855 Y132.634 E18.61701
G1 X124.1 Y132.531 E18.65161
G1 X123.339 Y132.225 E18.68885
G1 X122.77 Y131.856 E18.71964
G1 X122.209 Y131.326 E18.75467
G1 X121.707 Y130.53 E18.7974
G1 X121.577 Y130.239 E18.81187
G1 X121.353 Y129.239 E18.85839
G1 X121.353 Y112.658 E19.61117
G1 X105.853 Y112.648 E20.31487
G1 X105.098 Y112.545 E20.34947
G1 X104.337 Y112.239 E20.38671
G1 X103.768 Y111.87 E20.4175
G1 X103.207 Y111.34 E20.45253
G1 X102.705 Y110.544 E20.49526
G1 X102.575 Y110.253 E20.50973
G1 X102.351 Y109.251 E20.55634
G1 X102.361 Y105.864 E20.71011
G1 X102.464 Y105.109 E20.74471
G1 X102.77 Y104.348 E20.78195
G1 X103.139 Y103.779 E20.81274
G1 X103.669 Y103.218 E20.84777
G0 F6000 X104.019 Y103.643
G1 F1800 X104.756 Y103.178 E20.88734
G1 X104.928 Y103.107 E20.89578
G1 X105.817 Y102.908 E20.93714
G1 X126.356 Y102.903 E21.86962
G1 X127.22 Y103.061 E21.90949
G1 X127.888 Y103.377 E21.94304
G1 X128.342 Y103.719 E21.96885
G1 X128.885 Y104.35 E22.00664
G1 X131.801 Y109.597 E22.27917
G1 X132.103 Y110.635 E22.32825
G1 X132.103 Y127.443 E23.09133
G1 X131.943 Y128.316 E23.13163
G1 X131.548 Y129.106 E23.17173
G1 X131.163 Y129.536 E23.19793
G1 X130.648 Y129.978 E23.22874
G1 X127.216 Y131.867 E23.4066
G1 X126.186 Y132.098 E23.45452
G1 X124.928 Y132.093 E23.51164
G1 X124.243 Y132 E23.54302
G1 X123.589 Y131.737 E23.57502
G1 X123.11 Y131.426 E23.60095
G1 X122.634 Y130.976 E23.63069
G1 X122.169 Y130.239 E23.67025
G1 X122.098 Y130.067 E23.6787
G1 X121.899 Y129.178 E23.72006
G1 X121.899 Y112.112 E24.49486
G1 X105.926 Y112.107 E25.22003
G1 X105.241 Y112.014 E25.25142
G1 X104.587 Y111.751 E25.28342
G1 X104.108 Y111.44 E25.30935
G1 X103.632 Y110.99 E25.33909
G1 X103.167 Y110.253 E25.37865
G1 X103.096 Y110.081 E25.3871
G1 X102.897 Y109.191 E25.4285
G1 X102.902 Y105.937 E25.57624
G1 X102.995 Y105.252 E25.60762
G1 X103.258 Y104.598 E25.63962
G1 X103.569 Y104.119 E25.66555
G1 X104.019 Y103.643 E25.69529
G0 F6000 X104.368 Y104.068
G1 F1800 X104.027 Y104.416 E25.71741
G1 X103.745 Y104.85 E25.74091
G1 X103.527 Y105.393 E25.76747
G1 X103.443 Y106.011 E25.79579
G1 X103.443 Y109.131 E25.93744
G1 X103.629 Y109.962 E25.9761
G1 X104.057 Y110.641 E26.01254
G1 X104.405 Y110.982 E26.03466
G1 X104.839 Y111.264 E26.05815
G1 X105.382 Y111.482 E26.08472
G1 X106 Y111.566 E26.11303
G1 X122.445 Y111.566 E26.85964
G1 X122.445 Y129.117 E27.65646
G1 X122.631 Y129.948 E27.69512
G1 X123.059 Y130.627 E27.73156
G1 X123.407 Y130.968 E27.75368
G1 X123.841 Y131.25 E27.77717
G1 X124.384 Y131.468 E27.80374
G1 X125.002 Y131.552 E27.83205
G1 X126.126 Y131.552 E27.88308
G1 X127.023 Y131.351 E27.92482
G1 X130.334 Y129.528 E28.09642
G1 X130.807 Y129.122 E28.12472
G1 X131.094 Y128.794 E28.1445
G1 X131.42 Y128.142 E28.1776
G1 X131.557 Y127.394 E28.21212
G1 X131.557 Y110.712 E28.96949
G1 X131.294 Y109.808 E29.01223
G1 X128.436 Y104.665 E29.27935
G1 X127.928 Y104.075 E29.3147
G1 X127.609 Y103.849 E29.33245
G1 X127.05 Y103.585 E29.36051
G1 X126.307 Y103.449 E29.39481
G1 X105.878 Y103.454 E30.32229
G1 X105.047 Y103.64 E30.36095
G1 X104.368 Y104.068 E30.39739
G0 F6000 X104.659 Y104.53
G1 F1800 X104.433 Y104.781 E30.41272
G1 X104.208 Y105.14 E30.43196
G1 X104.058 Y105.536 E30.45118
G1 X103.989 Y106.011 E30.47297
G1 X103.989 Y109.07 E30.61185
G1 X104.141 Y109.751 E30.64353
G1 X104.519 Y110.35 E30.67569
G1 X104.77 Y110.576 E30.69102
G1 X105.129 Y110.801 E30.71025
G1 X105.525 Y110.951 E30.72948
G1 X106 Y111.02 E30.75127
G1 X122.991 Y111.02 E31.52266
G1 X122.991 Y129.056 E32.3415
G1 X123.143 Y129.737 E32.37318
G1 X123.521 Y130.336 E32.40534
G1 X123.772 Y130.562 E32.42067
G1 X124.131 Y130.787 E32.4399
G1 X124.527 Y130.937 E32.45913
G1 X125.002 Y131.006 E32.48092
G1 X126.064 Y131.006 E32.52914
G1 X126.83 Y130.834 E32.56478
G1 X130.02 Y129.078 E32.7301
G1 X130.451 Y128.708 E32.75589
G1 X130.636 Y128.488 E32.76894
G1 X130.897 Y127.967 E32.79539
G1 X131.011 Y127.345 E32.8241
G1 X131.011 Y110.789 E33.57574
G1 X130.787 Y110.019 E33.61215
G1 X127.987 Y104.98 E33.87387
G1 X127.556 Y104.48 E33.90384
G1 X127.376 Y104.343 E33.91411
G1 X126.88 Y104.109 E33.93901
G1 X126.258 Y103.995 E33.96772
G1 X105.939 Y104 E34.8902
G1 X105.258 Y104.152 E34.92188
G1 X104.659 Y104.53 E34.95403
G0 F6000 X105.052 Y104.909
G1 F1800 X104.896 Y105.071 E34.96425
G1 X104.671 Y105.43 E34.98348
G1 X104.597 Y105.622 E34.99282
G1 X104.535 Y106.011 E35.01071
G1 X104.535 Y109.009 E35.14682
G1 X104.654 Y109.541 E35.17157
G1 X104.898 Y109.957 E35.19346
G1 X105.06 Y110.113 E35.20367
G1 X105.419 Y110.338 E35.22291
G1 X105.611 Y110.412 E35.23225
G1 X106 Y110.474 E35.25013
G1 X123.537 Y110.474 E36.04631
G1 X123.537 Y128.995 E36.88717
G1 X123.656 Y129.527 E36.91192
G1 X123.9 Y129.943 E36.93381
G1 X124.062 Y130.099 E36.94402
G1 X124.421 Y130.324 E36.96326
G1 X124.613 Y130.398 E36.9726
G1 X125.002 Y130.46 E36.99048
G1 X126.003 Y130.46 E37.03593
G1 X126.637 Y130.318 E37.06543
G1 X129.706 Y128.628 E37.22449
G1 X130.095 Y128.294 E37.24776
G1 X130.206 Y128.152 E37.25595
G1 X130.403 Y127.734 E37.27693
G1 X130.465 Y127.345 E37.29481
G1 X130.465 Y110.866 E38.04296
G1 X130.28 Y110.23 E38.07303
G1 X127.538 Y105.295 E38.32934
G1 X127.143 Y104.837 E38.3568
G1 X126.647 Y104.603 E38.3817
G1 X126.258 Y104.541 E38.39958
G1 X106 Y104.546 E39.3193
G1 X105.468 Y104.665 E39.34405
G1 X105.052 Y104.909 E39.36594
G1 F1500 E38.36594
G0 F6000 X105.777 Y105.712
G1 F1500 E39.36594
G1 F1800 X106 Y105.638 E39.37661
G1 X126.258 Y105.633 E40.29632
G1 X126.425 Y105.672 E40.30411
G1 X126.584 Y105.825 E40.31413
G1 X129.326 Y110.76 E40.57044
G1 X129.373 Y110.941 E40.57893
G1 X129.373 Y127.345 E41.32367
G1 X129.334 Y127.512 E41.33146
G1 X129.18 Y127.672 E41.34154
G1 X126.183 Y129.322 E41.49686
G1 X126.003 Y129.368 E41.50529
G1 X125.002 Y129.368 E41.55074
G1 X124.835 Y129.329 E41.55853
G1 X124.703 Y129.218 E41.56636
G1 X124.629 Y128.995 E41.57702
G1 X124.629 Y109.382 E42.46746
G1 X106 Y109.382 E43.31321
G1 X105.833 Y109.343 E43.321
G1 X105.701 Y109.232 E43.32883
G1 X105.627 Y109.009 E43.3395
G1 X105.627 Y106.011 E43.47561
G1 X105.666 Y105.844 E43.48339
G1 X105.777 Y105.712 E43.49122
G0 F6000 X105.605 Y105.194
G1 F1800 X105.359 Y105.361 E43.50472
G1 X105.134 Y105.72 E43.52396
G1 X105.081 Y106.011 E43.53738
G1 X105.081 Y109.009 E43.67349
G1 X105.183 Y109.404 E43.69201
G1 X105.35 Y109.65 E43.70551
G1 X105.709 Y109.875 E43.72475
G1 X106 Y109.928 E43.73818
G1 X124.083 Y109.928 E44.55915
G1 X124.083 Y128.995 E45.42479
G1 X124.185 Y129.39 E45.44331
G1 X124.352 Y129.636 E45.45681
G1 X124.711 Y129.861 E45.47605
G1 X125.002 Y129.914 E45.48947
G1 X126.003 Y129.914 E45.53492
G1 X126.374 Y129.84 E45.5521
G1 X129.443 Y128.15 E45.71116
G1 X129.727 Y127.891 E45.72861
G1 X129.866 Y127.636 E45.74179
G1 X129.919 Y127.345 E45.75522
G1 X129.919 Y110.941 E46.49996
G1 X129.803 Y110.495 E46.52089
G1 X127.061 Y105.56 E46.7772
G1 X126.804 Y105.279 E46.79449
G1 X126.549 Y105.14 E46.80767
G1 X126.258 Y105.087 E46.8211
G1 X106 Y105.092 E47.74081
G1 X105.605 Y105.194 E47.75934
G1 F1500 E46.75934
;MESH:suporte_quadrobranco (3).stl
G0 F6000 X105.335 Y108.189
G0 X106.819 Y108.189
;TYPE:WALL-INNER
G1 F1500 E47.75934
G1 F1800 X125.136 Y108.189 E48.59093
G1 F1526.1 X125.71 Y108.427 E48.6242
G1 F1324.5 X125.868 Y108.706 E48.64399
G1 F1526.1 X125.819 Y109.008 E48.66037
G1 F1800 X125.819 Y128.157 E49.52974
G1 X128.181 Y126.859 E49.6521
G1 X128.181 Y111.149 E50.36533
G1 X126.842 Y108.744 E50.4903
G1 F1526.1 X126.542 Y108.404 E50.51458
G1 F1324.5 X126.323 Y108.012 E50.54228
G1 F1526.1 X125.977 Y107.186 E50.59024
G1 F1800 X125.774 Y106.823 E50.60912
G1 X106.819 Y106.827 E51.46968
G1 X106.819 Y108.189 E51.53152
G0 F6000 X106.273 Y108.735
;TYPE:WALL-OUTER
G1 F1800 X125.052 Y108.735 E52.38408
G1 X125.212 Y108.835 E52.39265
G1 X125.273 Y108.943 E52.39828
G1 X125.273 Y128.719 E53.29611
G1 X125.93 Y128.719 E53.32594
G1 X128.727 Y127.182 E53.47083
G1 X128.727 Y111.007 E54.20518
G1 X126.095 Y106.277 E54.45093
G1 X106.273 Y106.281 E55.35085
G1 X106.273 Y108.735 E55.46226
G0 F6000 X106.473 Y108.735
G1 F1500 E54.46226
G0 F6000 X107.254 Y107.754
;TYPE:SKIN
G1 F1500 E55.46226
G1 F1997.6 X107.254 Y107.262 E55.48239
G1 F1993.5 X125 Y107.259 E56.20985
G1 F1950 X125.51 Y107.269 E56.23123
G1 F1908.3 X125.578 Y107.39 E56.23718
G1 X125.735 Y107.921 E56.26089
G1 F1930.8 X125.222 Y107.754 E56.28372
G1 F1973.5 X107.254 Y107.754 E57.02775
G1 F1500 E56.02775
G0 F6000 X107.254 Y109.674
G0 X124.337 Y117.5
G0 X126.281 Y117.5
M104 S205
G1 F1500 E57.02775
G1 F1800 X126.281 Y109.031 E57.41225
G1 X126.32 Y108.899 E57.4185
G1 X126.457 Y109.003 E57.42631
G1 X127.719 Y111.268 E57.54402
G1 X127.719 Y126.582 E58.23928
G1 X126.281 Y127.374 E58.31381
G1 X126.281 Y117.5 E58.76209
G1 F1500 E57.76209
G0 F6000 X124.337 Y117.5
G0 X124.337 Y110.339
G0 X126.554 Y110.339
G1 F1500 E58.76209
G1 F1800 X127.309 Y111.094 E58.81057
G0 F6000 X126.554 Y111.111
G1 F1800 X127.446 Y112.003 E58.86784
G0 F6000 X127.446 Y112.775
G1 F1800 X126.554 Y111.883 E58.92511
G0 F6000 X126.554 Y112.656
G1 F1800 X127.446 Y113.547 E58.98235
G0 F6000 X127.446 Y114.319
G1 F1800 X126.554 Y113.428 E59.03959
G0 F6000 X126.554 Y114.2
G1 F1800 X127.446 Y115.092 E59.09686
G0 F6000 X127.446 Y115.864
G1 F1800 X126.554 Y114.972 E59.15413
G0 F6000 X126.554 Y115.744
G1 F1800 X127.446 Y116.636 E59.2114
G0 F6000 X127.446 Y117.408
G1 F1800 X126.554 Y116.516 E59.26867
G0 F6000 X126.554 Y117.289
G1 F1800 X127.446 Y118.18 E59.32591
G0 F6000 X127.446 Y118.952
G1 F1800 X126.554 Y118.061 E59.38315
G0 F6000 X126.554 Y118.833
G1 F1800 X127.446 Y119.724 E59.44039
G0 F6000 X127.446 Y120.497
G1 F1800 X126.554 Y119.605 E59.49766
G0 F6000 X126.554 Y120.377
G1 F1800 X127.446 Y121.269 E59.55493
G0 F6000 X127.446 Y122.041
G1 F1800 X126.554 Y121.149 E59.6122
G0 F6000 X126.554 Y121.921
G1 F1800 X127.446 Y122.813 E59.66947
G0 F6000 X127.446 Y123.585
G1 F1800 X126.554 Y122.694 E59.72671
G0 F6000 X126.554 Y123.466
G1 F1800 X127.446 Y124.357 E59.78395
G0 F6000 X127.446 Y125.13
G1 F1800 X126.554 Y124.238 E59.84122
G0 F6000 X126.554 Y125.01
G1 F1800 X127.446 Y125.902 E59.8985
G0 F6000 X127.283 Y126.511
G1 F1800 X126.554 Y125.782 E59.9453
G0 F6000 X126.554 Y126.554
G1 F1800 X126.785 Y126.785 E59.96013
G1 F1500 E58.96013
;MESH:NONMESH
G0 F600 X126.785 Y126.785 Z0.4
G0 F6000 X127.858 Y128.732
G0 X126.173 Y129.658
G0 X124.349 Y129.648
G0 X106.63 Y109.674
G0 X106.63 Y108.378
;TIME_ELAPSED:54.152156
;LAYER:1
M106 S85
M204 S1250
;TYPE:WALL-INNER
;MESH:suporte_quadrobranco (3).stl
G1 F1500 E59.96013
G1 F2790 X125.12 Y108.378 E60.60586
G1 X125.489 Y108.608 E60.62105
G1 X125.596 Y108.801 E60.62875
